;FLAVOR:Marlin
;TIME:916
;Filament used: 0.787927m
;Layer height: 0.2
;POSTPROCESSED
;Generated with Cura_SteamEngine 3.6.0
M104 S190
M105
M109 S190
M82 ;absolute extrusion mode

M83 ;relative extrusion mode
G1 F2400 E-1
;LAYER_COUNT:40
;LAYER:0
M107
;MESH:5milCamRing.stl
G0 F1800 X64.382 Y49.15 Z0.3
;TYPE:WALL-INNER
G1 F2400 E1
G1 F600 X65.229 Y49.227 E0.04243
G1 X66.084 Y49.357 E0.04315
G1 X66.948 Y49.542 E0.04408
G1 X67.782 Y49.774 E0.04319
G1 X68.586 Y50.051 E0.04243
G1 X69.407 Y50.391 E0.04433
G1 X70.177 Y50.767 E0.04275
G1 X70.937 Y51.195 E0.04352
G1 X71.675 Y51.672 E0.04384
G1 X72.368 Y52.183 E0.04296
G1 X73.026 Y52.73 E0.04269
G1 X73.666 Y53.334 E0.0439
G1 X74.266 Y53.97 E0.04362
G1 X74.813 Y54.627 E0.04265
G1 X75.328 Y55.325 E0.04328
G1 X75.805 Y56.063 E0.04384
G1 X76.233 Y56.823 E0.04352
G1 X76.609 Y57.593 E0.04275
G1 X76.95 Y58.417 E0.04449
G1 X77.224 Y59.214 E0.04205
G1 X77.458 Y60.052 E0.04341
G1 X77.645 Y60.924 E0.04449
G1 X77.773 Y61.77 E0.04269
G1 X77.85 Y62.62 E0.04258
G1 X77.877 Y63.493 E0.04357
G1 X77.851 Y64.372 E0.04387
G1 X77.773 Y65.229 E0.04293
G1 X77.643 Y66.084 E0.04315
G1 X77.461 Y66.937 E0.04351
G1 X77.226 Y67.782 E0.04376
G1 X76.95 Y68.583 E0.04227
G1 X76.61 Y69.404 E0.04433
G1 X76.233 Y70.177 E0.04291
G1 X75.805 Y70.937 E0.04352
G1 X75.331 Y71.671 E0.04359
G1 X74.82 Y72.365 E0.043
G1 X74.261 Y73.036 E0.04357
G1 X73.669 Y73.664 E0.04306
G1 X73.036 Y74.261 E0.04341
G1 X72.368 Y74.817 E0.04336
G1 X71.675 Y75.328 E0.04296
G1 X70.937 Y75.805 E0.04384
G1 X70.18 Y76.231 E0.04334
G1 X69.407 Y76.609 E0.04293
G1 X68.587 Y76.949 E0.04429
G1 X67.782 Y77.226 E0.04247
G1 X66.948 Y77.458 E0.04319
G1 X66.084 Y77.643 E0.04408
G1 X65.229 Y77.773 E0.04315
G1 X64.382 Y77.85 E0.04243
G1 X63.5 Y77.878 E0.04403
G1 X62.618 Y77.85 E0.04403
G1 X61.771 Y77.773 E0.04243
G1 X60.916 Y77.643 E0.04315
G1 X60.052 Y77.458 E0.04408
G1 X59.218 Y77.226 E0.04319
G1 X58.413 Y76.949 E0.04247
G1 X57.593 Y76.609 E0.04429
G1 X56.82 Y76.231 E0.04293
G1 X56.063 Y75.805 E0.04334
G1 X55.325 Y75.328 E0.04384
G1 X54.632 Y74.817 E0.04296
G1 X53.964 Y74.261 E0.04336
G1 X53.331 Y73.664 E0.04341
G1 X52.739 Y73.036 E0.04306
G1 X52.18 Y72.365 E0.04357
G1 X51.669 Y71.671 E0.043
G1 X51.195 Y70.937 E0.04359
G1 X50.767 Y70.177 E0.04352
G1 X50.39 Y69.404 E0.04291
G1 X50.05 Y68.583 E0.04433
G1 X49.774 Y67.782 E0.04227
G1 X49.539 Y66.937 E0.04376
G1 X49.357 Y66.084 E0.04351
G1 X49.227 Y65.229 E0.04315
G1 X49.15 Y64.382 E0.04243
G1 X49.122 Y63.505 E0.04378
G1 X49.15 Y62.613 E0.04452
G1 X49.227 Y61.771 E0.04218
G1 X49.357 Y60.916 E0.04315
G1 X49.539 Y60.063 E0.04351
G1 X49.774 Y59.218 E0.04376
G1 X50.05 Y58.417 E0.04227
G1 X50.391 Y57.593 E0.04449
G1 X50.767 Y56.823 E0.04275
G1 X51.195 Y56.063 E0.04352
G1 X51.672 Y55.325 E0.04384
G1 X52.18 Y54.636 E0.04271
G1 X52.734 Y53.97 E0.04322
G1 X53.334 Y53.334 E0.04362
G1 X53.974 Y52.73 E0.0439
G1 X54.632 Y52.183 E0.04269
G1 X55.325 Y51.672 E0.04296
G1 X56.063 Y51.195 E0.04384
G1 X56.823 Y50.767 E0.04352
G1 X57.593 Y50.391 E0.04275
G1 X58.414 Y50.051 E0.04433
G1 X59.218 Y49.774 E0.04243
G1 X60.052 Y49.542 E0.04319
G1 X60.916 Y49.357 E0.04408
G1 X61.771 Y49.227 E0.04315
G1 X62.618 Y49.15 E0.04243
G1 X63.5 Y49.122 E0.04403
G1 X64.382 Y49.15 E0.04403
G0 F1800 X64.376 Y49.249
G0 X70.771 Y53.135
G0 X72.076 Y54.184
G0 X73.229 Y55.398
G0 X74.212 Y56.751
G0 X75.01 Y58.224
G0 X75.605 Y59.787
G0 X75.989 Y61.417
G0 X76.155 Y63.082
G0 X76.11 Y64.434
G0 X75.884 Y66.418
G0 X75.787 Y66.396
G1 F600 X75.95 Y65.577 E0.04166
G1 X76.06 Y64.75 E0.04162
G1 X76.116 Y63.917 E0.04165
G1 X76.116 Y63.083 E0.04161
G1 X76.06 Y62.25 E0.04165
G1 X75.95 Y61.423 E0.04162
G1 X75.787 Y60.604 E0.04166
G1 X75.567 Y59.798 E0.04168
G1 X75.296 Y59.01 E0.04157
G1 X74.974 Y58.24 E0.04164
G1 X74.601 Y57.493 E0.04166
G1 X74.179 Y56.772 E0.04168
G1 X73.712 Y56.081 E0.04161
G1 X73.199 Y55.423 E0.04163
G1 X72.644 Y54.799 E0.04166
G1 X72.049 Y54.213 E0.04166
G1 X71.415 Y53.668 E0.04171
G1 X70.749 Y53.167 E0.04158
G1 X70.051 Y52.711 E0.0416
G1 X69.323 Y52.301 E0.04168
G1 X68.57 Y51.941 E0.04164
G1 X67.794 Y51.632 E0.04167
G1 X67.002 Y51.374 E0.04156
G1 X66.192 Y51.167 E0.04171
G1 X65.37 Y51.017 E0.04169
G1 X64.542 Y50.921 E0.04159
G1 X63.709 Y50.879 E0.04161
G1 X62.875 Y50.892 E0.04161
G1 X62.043 Y50.961 E0.04165
G1 X61.217 Y51.085 E0.04167
G1 X60.402 Y51.264 E0.04163
G1 X59.599 Y51.495 E0.04169
G1 X58.815 Y51.779 E0.0416
G1 X58.051 Y52.114 E0.04162
G1 X57.31 Y52.5 E0.04168
G1 X56.597 Y52.933 E0.04162
G1 X55.914 Y53.412 E0.04162
G1 X55.263 Y53.936 E0.04169
G1 X54.649 Y54.501 E0.04163
G1 X54.074 Y55.106 E0.04164
G1 X53.539 Y55.747 E0.04165
G1 X53.049 Y56.424 E0.04169
G1 X52.603 Y57.129 E0.04162
G1 X52.207 Y57.864 E0.04165
G1 X51.859 Y58.622 E0.04161
G1 X51.563 Y59.402 E0.04162
G1 X51.317 Y60.2 E0.04166
G1 X51.126 Y61.013 E0.04167
G1 X50.988 Y61.836 E0.04163
G1 X50.905 Y62.666 E0.04162
G1 X50.878 Y63.5 E0.04163
G1 X50.905 Y64.334 E0.04163
G1 X50.988 Y65.164 E0.04162
G1 X51.126 Y65.987 E0.04163
G1 X51.317 Y66.8 E0.04167
G1 X51.563 Y67.598 E0.04166
G1 X51.859 Y68.378 E0.04162
G1 X52.207 Y69.136 E0.04161
G1 X52.603 Y69.871 E0.04165
G1 X53.049 Y70.576 E0.04162
G1 X53.539 Y71.253 E0.04169
G1 X54.074 Y71.894 E0.04165
G1 X54.649 Y72.499 E0.04164
G1 X55.263 Y73.064 E0.04163
G1 X55.914 Y73.588 E0.04169
G1 X56.597 Y74.067 E0.04162
G1 X57.31 Y74.5 E0.04162
G1 X58.051 Y74.886 E0.04168
G1 X58.815 Y75.221 E0.04162
G1 X59.599 Y75.505 E0.0416
G1 X60.402 Y75.736 E0.04169
G1 X61.217 Y75.915 E0.04163
G1 X62.043 Y76.039 E0.04167
G1 X62.875 Y76.108 E0.04165
G1 X63.709 Y76.121 E0.04161
G1 X64.542 Y76.079 E0.04161
G1 X65.37 Y75.983 E0.04159
G1 X66.192 Y75.833 E0.04169
G1 X67.002 Y75.626 E0.04171
G1 X67.794 Y75.368 E0.04156
G1 X68.57 Y75.059 E0.04167
G1 X69.323 Y74.699 E0.04164
G1 X70.051 Y74.289 E0.04168
G1 X70.749 Y73.833 E0.0416
G1 X71.415 Y73.332 E0.04158
G1 X72.049 Y72.787 E0.04171
G1 X72.644 Y72.201 E0.04166
G1 X73.199 Y71.577 E0.04166
G1 X73.712 Y70.919 E0.04163
G1 X74.179 Y70.228 E0.04161
G1 X74.601 Y69.507 E0.04168
G1 X74.974 Y68.76 E0.04166
G1 X75.296 Y67.99 E0.04164
G1 X75.567 Y67.202 E0.04157
G1 X75.787 Y66.396 E0.04168
G0 F1800 X75.397 Y66.304
;TYPE:WALL-OUTER
G1 F600 X75.555 Y65.511 E0.04034
G1 X75.662 Y64.71 E0.04032
G1 X75.716 Y63.904 E0.0403
G1 X75.716 Y63.096 E0.04031
G1 X75.662 Y62.29 E0.0403
G1 X75.555 Y61.489 E0.04032
G1 X75.397 Y60.696 E0.04034
G1 X75.184 Y59.916 E0.04034
G1 X74.922 Y59.152 E0.0403
G1 X74.61 Y58.407 E0.0403
G1 X74.249 Y57.684 E0.04032
G1 X73.84 Y56.985 E0.0404
G1 X73.388 Y56.316 E0.04028
G1 X72.892 Y55.679 E0.04028
G1 X72.354 Y55.075 E0.04035
G1 X71.778 Y54.508 E0.04032
G1 X71.164 Y53.98 E0.0404
G1 X70.519 Y53.495 E0.04026
G1 X69.843 Y53.053 E0.0403
G1 X69.138 Y52.656 E0.04037
G1 X68.409 Y52.308 E0.0403
G1 X67.658 Y52.008 E0.04035
G1 X66.89 Y51.758 E0.04029
G1 X66.107 Y51.558 E0.04032
G1 X65.311 Y51.413 E0.04037
G1 X64.509 Y51.32 E0.04028
G1 X63.702 Y51.279 E0.04031
G1 X62.895 Y51.292 E0.04027
G1 X62.089 Y51.359 E0.04035
G1 X61.29 Y51.479 E0.04031
G1 X60.5 Y51.652 E0.04035
G1 X59.723 Y51.876 E0.04034
G1 X58.964 Y52.151 E0.04028
G1 X58.224 Y52.475 E0.0403
G1 X57.506 Y52.849 E0.04039
G1 X56.816 Y53.268 E0.04027
G1 X56.154 Y53.732 E0.04033
G1 X55.524 Y54.239 E0.04034
G1 X54.93 Y54.786 E0.04029
G1 X54.373 Y55.372 E0.04034
G1 X53.855 Y55.993 E0.04035
G1 X53.38 Y56.648 E0.04037
G1 X52.949 Y57.331 E0.04029
G1 X52.565 Y58.043 E0.04036
G1 X52.228 Y58.777 E0.04029
G1 X51.941 Y59.532 E0.0403
G1 X51.703 Y60.305 E0.04035
G1 X51.518 Y61.092 E0.04033
G1 X51.385 Y61.889 E0.04031
G1 X51.304 Y62.693 E0.04031
G1 X51.278 Y63.5 E0.04028
G1 X51.304 Y64.307 E0.04028
G1 X51.385 Y65.111 E0.04031
G1 X51.518 Y65.908 E0.04031
G1 X51.703 Y66.695 E0.04033
G1 X51.941 Y67.468 E0.04035
G1 X52.228 Y68.223 E0.0403
G1 X52.565 Y68.957 E0.04029
G1 X52.949 Y69.669 E0.04036
G1 X53.38 Y70.352 E0.04029
G1 X53.855 Y71.007 E0.04037
G1 X54.373 Y71.628 E0.04035
G1 X54.93 Y72.214 E0.04034
G1 X55.524 Y72.761 E0.04029
G1 X56.154 Y73.268 E0.04034
G1 X56.816 Y73.732 E0.04033
G1 X57.506 Y74.151 E0.04027
G1 X58.224 Y74.525 E0.04039
G1 X58.964 Y74.849 E0.0403
G1 X59.723 Y75.124 E0.04028
G1 X60.5 Y75.348 E0.04034
G1 X61.29 Y75.521 E0.04035
G1 X62.089 Y75.641 E0.04031
G1 X62.895 Y75.708 E0.04035
G1 X63.702 Y75.721 E0.04027
G1 X64.509 Y75.68 E0.04031
G1 X65.311 Y75.587 E0.04028
G1 X66.107 Y75.442 E0.04037
G1 X66.89 Y75.242 E0.04032
G1 X67.658 Y74.992 E0.04029
G1 X68.409 Y74.692 E0.04035
G1 X69.138 Y74.344 E0.0403
G1 X69.843 Y73.947 E0.04037
G1 X70.519 Y73.505 E0.0403
G1 X71.164 Y73.02 E0.04026
G1 X71.778 Y72.492 E0.0404
G1 X72.354 Y71.925 E0.04032
G1 X72.892 Y71.321 E0.04035
G1 X73.388 Y70.684 E0.04028
G1 X73.84 Y70.015 E0.04028
G1 X74.249 Y69.316 E0.0404
G1 X74.61 Y68.593 E0.04032
G1 X74.922 Y67.848 E0.0403
G1 X75.184 Y67.084 E0.0403
G1 X75.397 Y66.304 E0.04034
G0 F1800 X75.436 Y66.108
G0 X75.926 Y66.207
G0 X75.333 Y68.004
G0 X74.636 Y69.526
G0 X73.744 Y70.942
G0 X73.441 Y71.306
G0 X68.552 Y76.856
G0 X68.739 Y77.319
G1 F600 X67.903 Y77.607 E0.04411
G1 X67.038 Y77.848 E0.0448
G1 X66.162 Y78.035 E0.04469
G1 X65.276 Y78.17 E0.04471
G1 X64.397 Y78.25 E0.04403
G1 X63.5 Y78.278 E0.04477
G1 X62.603 Y78.25 E0.04477
G1 X61.724 Y78.17 E0.04403
G1 X60.838 Y78.035 E0.04471
G1 X59.962 Y77.848 E0.04469
G1 X59.097 Y77.607 E0.0448
G1 X58.261 Y77.319 E0.04411
G1 X57.44 Y76.979 E0.04433
G1 X56.627 Y76.582 E0.04514
G1 X55.86 Y76.15 E0.04392
G1 X55.1 Y75.659 E0.04514
G1 X54.386 Y75.133 E0.04424
G1 X53.699 Y74.561 E0.0446
G1 X53.048 Y73.947 E0.04465
G1 X52.439 Y73.301 E0.04429
G1 X51.864 Y72.61 E0.04485
G1 X51.338 Y71.896 E0.04424
G1 X50.85 Y71.14 E0.04489
G1 X50.418 Y70.373 E0.04392
G1 X50.021 Y69.56 E0.04514
G1 X49.68 Y68.736 E0.04449
G1 X49.393 Y67.903 E0.04396
G1 X49.15 Y67.031 E0.04516
G1 X48.964 Y66.159 E0.04448
G1 X48.83 Y65.276 E0.04456
G1 X48.75 Y64.397 E0.04403
G1 X48.722 Y63.506 E0.04447
G1 X48.75 Y62.601 E0.04517
G1 X48.83 Y61.724 E0.04394
G1 X48.964 Y60.841 E0.04456
G1 X49.15 Y59.969 E0.04448
G1 X49.393 Y59.097 E0.04516
G1 X49.68 Y58.264 E0.04396
G1 X50.021 Y57.44 E0.04449
G1 X50.418 Y56.627 E0.04514
G1 X50.85 Y55.86 E0.04392
G1 X51.341 Y55.1 E0.04514
G1 X51.864 Y54.39 E0.04399
G1 X52.443 Y53.695 E0.04513
G1 X53.051 Y53.051 E0.04419
G1 X53.699 Y52.439 E0.04447
G1 X54.386 Y51.867 E0.0446
G1 X55.1 Y51.341 E0.04424
G1 X55.86 Y50.85 E0.04514
G1 X56.627 Y50.418 E0.04392
G1 X57.44 Y50.021 E0.04514
G1 X58.261 Y49.681 E0.04433
G1 X59.097 Y49.393 E0.04411
G1 X59.962 Y49.152 E0.0448
G1 X60.838 Y48.965 E0.04469
G1 X61.724 Y48.83 E0.04471
G1 X62.603 Y48.75 E0.04403
G1 X63.5 Y48.722 E0.04477
G1 X64.397 Y48.75 E0.04477
G1 X65.276 Y48.83 E0.04403
G1 X66.162 Y48.965 E0.04471
G1 X67.038 Y49.152 E0.04469
G1 X67.903 Y49.393 E0.0448
G1 X68.739 Y49.681 E0.04411
G1 X69.56 Y50.021 E0.04433
G1 X70.373 Y50.418 E0.04514
G1 X71.14 Y50.85 E0.04392
G1 X71.9 Y51.341 E0.04514
G1 X72.614 Y51.867 E0.04424
G1 X73.301 Y52.439 E0.0446
G1 X73.949 Y53.051 E0.04447
G1 X74.557 Y53.695 E0.04419
G1 X75.129 Y54.381 E0.04456
G1 X75.659 Y55.1 E0.04456
G1 X76.15 Y55.86 E0.04514
G1 X76.582 Y56.627 E0.04392
G1 X76.979 Y57.44 E0.04514
G1 X77.32 Y58.264 E0.04449
G1 X77.607 Y59.097 E0.04396
G1 X77.847 Y59.957 E0.04454
G1 X78.036 Y60.841 E0.0451
G1 X78.17 Y61.724 E0.04456
G1 X78.25 Y62.608 E0.04428
G1 X78.277 Y63.494 E0.04422
G1 X78.251 Y64.387 E0.04457
G1 X78.17 Y65.276 E0.04454
G1 X78.036 Y66.159 E0.04456
G1 X77.85 Y67.031 E0.04448
G1 X77.607 Y67.903 E0.04516
G1 X77.32 Y68.736 E0.04396
G1 X76.979 Y69.56 E0.04449
G1 X76.582 Y70.373 E0.04514
G1 X76.15 Y71.14 E0.04392
G1 X75.662 Y71.896 E0.04489
G1 X75.136 Y72.61 E0.04424
G1 X74.561 Y73.301 E0.04485
G1 X73.952 Y73.947 E0.04429
G1 X73.301 Y74.561 E0.04465
G1 X72.614 Y75.133 E0.0446
G1 X71.9 Y75.659 E0.04424
G1 X71.14 Y76.15 E0.04514
G1 X70.373 Y76.582 E0.04392
G1 X69.56 Y76.979 E0.04514
G1 X68.739 Y77.319 E0.04433
G0 F1800 X68.55 Y77.384
G0 X68.389 Y76.912
G0 X68.44 Y76.587
;TYPE:SKIN
G1 F600 X67.665 Y76.853 E0.04088
G1 X66.861 Y77.077 E0.04164
G1 X66.01 Y77.259 E0.04342
G1 X65.17 Y77.387 E0.04239
G1 X64.368 Y77.46 E0.04018
G1 X63.5 Y77.488 E0.04333
G1 X62.632 Y77.46 E0.04333
G1 X61.83 Y77.387 E0.04018
G1 X60.99 Y77.259 E0.04239
G1 X60.139 Y77.077 E0.04342
G1 X59.335 Y76.853 E0.04164
G1 X58.56 Y76.587 E0.04088
G1 X57.748 Y76.25 E0.04386
G1 X56.999 Y75.884 E0.04159
G1 X56.27 Y75.474 E0.04173
G1 X55.545 Y75.006 E0.04305
G1 X54.874 Y74.511 E0.0416
G1 X54.214 Y73.961 E0.04286
G1 X53.607 Y73.389 E0.04161
G1 X53.035 Y72.782 E0.04161
G1 X52.48 Y72.115 E0.04329
G1 X51.987 Y71.445 E0.0415
G1 X51.523 Y70.726 E0.04269
G1 X51.113 Y69.996 E0.04177
G1 X50.746 Y69.243 E0.04179
G1 X50.411 Y68.433 E0.04373
G1 X50.147 Y67.666 E0.04047
G1 X49.918 Y66.842 E0.04267
G1 X49.739 Y66.002 E0.04285
G1 X49.613 Y65.17 E0.04198
G1 X49.54 Y64.364 E0.04038
G1 X49.512 Y63.517 E0.04228
G1 X49.54 Y62.625 E0.04452
G1 X49.613 Y61.83 E0.03983
G1 X49.739 Y60.998 E0.04198
G1 X49.918 Y60.157 E0.0429
G1 X50.147 Y59.334 E0.04262
G1 X50.411 Y58.566 E0.04052
G1 X50.747 Y57.754 E0.04384
G1 X51.113 Y57.004 E0.04164
G1 X51.523 Y56.275 E0.04173
G1 X52 Y55.537 E0.04384
G1 X52.48 Y54.886 E0.04035
G1 X53.034 Y54.22 E0.04322
G1 X53.601 Y53.617 E0.04129
G1 X54.227 Y53.026 E0.04295
G1 X54.873 Y52.49 E0.04188
G1 X55.545 Y51.994 E0.04167
G1 X56.271 Y51.526 E0.04309
G1 X57.004 Y51.113 E0.04197
G1 X57.748 Y50.75 E0.0413
G1 X58.561 Y50.413 E0.04391
G1 X59.334 Y50.147 E0.04078
G1 X60.139 Y49.923 E0.04169
G1 X60.99 Y49.741 E0.04342
G1 X61.83 Y49.613 E0.04239
G1 X62.632 Y49.54 E0.04018
G1 X63.5 Y49.512 E0.04333
G1 X64.368 Y49.54 E0.04333
G1 X65.17 Y49.613 E0.04018
G1 X66.01 Y49.741 E0.04239
G1 X66.861 Y49.923 E0.04342
G1 X67.666 Y50.147 E0.04169
G1 X68.439 Y50.413 E0.04078
G1 X69.252 Y50.75 E0.04391
G1 X69.996 Y51.113 E0.0413
G1 X70.729 Y51.526 E0.04197
G1 X71.455 Y51.994 E0.04309
G1 X72.127 Y52.49 E0.04167
G1 X72.773 Y53.026 E0.04188
G1 X73.383 Y53.601 E0.04182
G1 X73.966 Y54.22 E0.04242
G1 X74.506 Y54.868 E0.04208
G1 X75 Y55.537 E0.04149
G1 X75.471 Y56.265 E0.04326
G1 X75.887 Y57.004 E0.04231
G1 X76.253 Y57.754 E0.04164
G1 X76.589 Y58.566 E0.04384
G1 X76.851 Y59.33 E0.0403
G1 X77.076 Y60.134 E0.04165
G1 X77.263 Y61.006 E0.04449
G1 X77.387 Y61.828 E0.04147
G1 X77.46 Y62.632 E0.04028
G1 X77.487 Y63.481 E0.04238
G1 X77.461 Y64.355 E0.04362
G1 X77.387 Y65.17 E0.04083
G1 X77.261 Y66.002 E0.04198
G1 X77.082 Y66.842 E0.04285
G1 X76.853 Y67.666 E0.04267
G1 X76.589 Y68.433 E0.04047
G1 X76.254 Y69.243 E0.04373
G1 X75.887 Y69.996 E0.04179
G1 X75.477 Y70.726 E0.04177
G1 X75.013 Y71.445 E0.04269
G1 X74.52 Y72.115 E0.0415
G1 X73.965 Y72.782 E0.04329
G1 X73.393 Y73.389 E0.04161
G1 X72.786 Y73.961 E0.04161
G1 X72.126 Y74.511 E0.04286
G1 X71.455 Y75.006 E0.0416
G1 X70.73 Y75.474 E0.04305
G1 X70.001 Y75.884 E0.04173
G1 X69.252 Y76.25 E0.04159
G1 X68.44 Y76.587 E0.04386
G0 F1800 X67.927 Y75.735
G1 F600 X68.726 Y75.416 E0.04292
G1 X69.503 Y75.046 E0.04294
G1 X70.254 Y74.622 E0.04303
G1 X70.973 Y74.153 E0.04283
G1 X71.659 Y73.636 E0.04286
G1 X72.314 Y73.074 E0.04306
G1 X72.927 Y72.47 E0.04293
G1 X73.499 Y71.827 E0.04294
G1 X74.028 Y71.149 E0.0429
G1 X74.509 Y70.436 E0.04291
G1 X74.944 Y69.693 E0.04295
G1 X75.329 Y68.922 E0.04299
G1 X75.661 Y68.129 E0.04289
G1 X75.94 Y67.317 E0.04284
G1 X76.167 Y66.486 E0.04298
G1 X76.335 Y65.641 E0.04298
G1 X76.448 Y64.789 E0.04288
G1 X76.506 Y63.93 E0.04295
G1 X76.506 Y63.07 E0.04291
G1 X76.448 Y62.211 E0.04295
G1 X76.335 Y61.359 E0.04288
G1 X76.167 Y60.514 E0.04298
G1 X75.94 Y59.683 E0.04298
G1 X75.661 Y58.871 E0.04284
G1 X75.329 Y58.078 E0.04289
G1 X74.944 Y57.307 E0.04299
G1 X74.509 Y56.564 E0.04295
G1 X74.028 Y55.851 E0.04291
G1 X73.499 Y55.173 E0.0429
G1 X72.927 Y54.53 E0.04294
G1 X72.314 Y53.926 E0.04293
G1 X71.659 Y53.364 E0.04306
G1 X70.973 Y52.847 E0.04286
G1 X70.254 Y52.378 E0.04283
G1 X69.503 Y51.954 E0.04303
G1 X68.726 Y51.584 E0.04294
G1 X67.927 Y51.265 E0.04292
G1 X67.111 Y50.999 E0.04282
G1 X66.276 Y50.786 E0.04299
G1 X65.427 Y50.631 E0.04306
G1 X64.575 Y50.533 E0.04279
G1 X63.715 Y50.489 E0.04296
G1 X62.856 Y50.502 E0.04286
G1 X61.998 Y50.573 E0.04295
G1 X61.146 Y50.701 E0.04298
G1 X60.306 Y50.886 E0.04291
