;FLAVOR:Marlin
;TIME:648
;Filament used: 0.681995m
;Layer height: 0.2
;POSTPROCESSED
;Generated with Cura_SteamEngine 3.4.1
M104 S190
M109 S190
M82 ;absolute extrusion mode

M83 ;relative extrusion mode
G1 F2400 E-1
;LAYER_COUNT:50
;LAYER:0
M107
G0 F1800 X36.079 Y61.993 Z0.3
;TYPE:WALL-INNER
G1 F2400 E1
G1 F600 X35.547 Y61.797 E0.02829
G1 X35.074 Y61.6 E0.02556
G1 X35.547 Y61.6 E0.00544
G1 X36.114 Y61.6 E0.02122
G1 X90.98 Y61.6 E2.73728
G1 X91.343 Y61.632 E0.01818
G1 X91.653 Y61.714 E0.016
G1 X91.951 Y61.854 E0.01643
G1 X92.227 Y62.047 E0.0168
G1 X92.453 Y62.273 E0.01595
G1 X92.646 Y62.549 E0.0168
G1 X92.786 Y62.847 E0.01643
G1 X92.869 Y63.157 E0.01601
G1 X92.897 Y63.491 E0.01672
G1 X92.869 Y63.843 E0.01762
G1 X92.786 Y64.153 E0.01601
G1 X92.646 Y64.451 E0.01643
G1 X92.453 Y64.727 E0.0168
G1 X92.227 Y64.953 E0.01595
G1 X91.951 Y65.146 E0.0168
G1 X91.653 Y65.286 E0.01643
G1 X91.343 Y65.368 E0.016
G1 X90.98 Y65.4 E0.01818
G1 X54.655 Y65.4 E1.81226
G1 X52.686 Y65.363 E0.09825
G1 X50.737 Y65.255 E0.09739
G1 X48.795 Y65.072 E0.09732
G1 X46.847 Y64.817 E0.09802
G1 X44.938 Y64.493 E0.0966
G1 X43.002 Y64.091 E0.09865
G1 X41.104 Y63.621 E0.09755
G1 X39.247 Y63.087 E0.0964
G1 X37.375 Y62.473 E0.09829
G1 X36.079 Y61.993 E0.06895
G0 F1800 X36.113 Y61.901
G0 X35.172 Y61.619
G0 X34.018 Y61.594
;TYPE:WALL-OUTER
G1 F600 X33.7 Y61.462 E0.01718
G1 X33.7 Y61.2 E0.01307
G1 X34.045 Y61.2 E0.0143
G1 X91.003 Y61.2 E2.84165
G1 X91.407 Y61.235 E0.02023
G1 X91.793 Y61.338 E0.01993
G1 X92.153 Y61.507 E0.01984
G1 X92.486 Y61.74 E0.02028
G1 X92.76 Y62.014 E0.01933
G1 X92.993 Y62.347 E0.02028
G1 X93.162 Y62.707 E0.01984
G1 X93.265 Y63.093 E0.01993
G1 X93.299 Y63.491 E0.01993
G1 X93.265 Y63.907 E0.02082
G1 X93.162 Y64.293 E0.01993
G1 X92.993 Y64.653 E0.01984
G1 X92.76 Y64.986 E0.02028
G1 X92.486 Y65.26 E0.01933
G1 X92.153 Y65.493 E0.02028
G1 X91.793 Y65.662 E0.01984
G1 X91.407 Y65.765 E0.01993
G1 X91.003 Y65.8 E0.02023
G1 X54.647 Y65.8 E1.81381
G1 X52.678 Y65.763 E0.09825
G1 X50.704 Y65.653 E0.09864
G1 X48.743 Y65.469 E0.09826
G1 X46.795 Y65.214 E0.09802
G1 X44.856 Y64.885 E0.09812
G1 X42.92 Y64.482 E0.09866
G1 X41.008 Y64.009 E0.09827
G1 X39.122 Y63.467 E0.0979
G1 X37.25 Y62.853 E0.09829
G1 X35.403 Y62.17 E0.09825
G1 X34.018 Y61.594 E0.07484
G0 F1800 X33.834 Y61.518
G0 X35.172 Y61.619
G0 X37.193 Y61.99
;TYPE:SKIN
G1 F600 X90.967 Y61.99 E2.6828
G1 X91.275 Y62.017 E0.01543
G1 X91.518 Y62.082 E0.01255
G1 X91.752 Y62.192 E0.0129
G1 X91.983 Y62.353 E0.01405
G1 X92.147 Y62.517 E0.01157
G1 X92.308 Y62.748 E0.01405
G1 X92.418 Y62.98 E0.01281
G1 X92.485 Y63.229 E0.01286
G1 X92.507 Y63.491 E0.01312
G1 X92.485 Y63.771 E0.01401
G1 X92.418 Y64.02 E0.01286
G1 X92.308 Y64.252 E0.01281
G1 X92.147 Y64.483 E0.01405
G1 X91.983 Y64.647 E0.01157
G1 X91.752 Y64.808 E0.01405
G1 X91.518 Y64.918 E0.0129
G1 X91.275 Y64.983 E0.01255
G1 X90.967 Y65.01 E0.01543
G1 X54.663 Y65.01 E1.81121
G1 X52.708 Y64.973 E0.09755
G1 X50.759 Y64.865 E0.09739
G1 X48.832 Y64.684 E0.09656
G1 X46.908 Y64.433 E0.0968
G1 X45.018 Y64.111 E0.09565
G1 X43.082 Y63.709 E0.09865
G1 X41.205 Y63.245 E0.09646
G1 X39.362 Y62.714 E0.09569
G1 X37.503 Y62.104 E0.09761
G1 X37.193 Y61.99 E0.01648
G0 F1800 X38.41 Y62.169
G0 X38.441 Y62.2
G1 F600 X39.145 Y62.338 E0.01414
G1 X39.828 Y62.455 E0.03224
G1 X40.184 Y62.812
G0 F1800 X40.107 Y62.169
G1 F600 X40.909 Y62.971 E0.05659
G1 X40.979 Y63.041
G0 F1800 X41.679 Y63.175
G1 F600 X40.673 Y62.169 E0.07098
G1 X40.603 Y62.099
G0 F1800 X41.239 Y62.169
G1 F600 X42.431 Y63.361 E0.0841
G1 X42.501 Y63.431
G0 F1800 X43.179 Y63.544
G1 F600 X41.804 Y62.169 E0.09701
G1 X41.734 Y62.099
G0 F1800 X42.37 Y62.169
G1 F600 X43.893 Y63.692 E0.10746
G1 X43.963 Y63.762
G0 F1800 X44.607 Y63.841
G1 F600 X42.936 Y62.169 E0.11793
G1 X42.866 Y62.099
G0 F1800 X43.501 Y62.169
G1 F600 X45.309 Y63.977 E0.12756
G1 X45.379 Y64.047
G0 F1800 X45.991 Y64.093
G1 F600 X44.067 Y62.169 E0.13575
G1 X43.997 Y62.099
G0 F1800 X44.633 Y62.169
G1 F600 X46.673 Y64.209 E0.14393
G1 X46.743 Y64.279
G0 F1800 X47.336 Y64.307
G1 F600 X45.198 Y62.169 E0.15085
G1 X45.128 Y62.099
G0 F1800 X45.764 Y62.169
G1 F600 X47.987 Y64.391 E0.15681
G1 X48.057 Y64.461
G0 F1800 X48.637 Y64.476
G1 F600 X46.33 Y62.169 E0.16277
G1 X46.26 Y62.099
G0 F1800 X46.896 Y62.169
G1 F600 X49.269 Y64.543 E0.16746
G1 X49.339 Y64.613
G0 F1800 X49.894 Y64.601
G1 F600 X47.461 Y62.169 E0.17163
G1 X47.391 Y62.099
G0 F1800 X48.027 Y62.169
G1 F600 X50.518 Y64.66 E0.17575
G1 X50.588 Y64.73
G0 F1800 X51.128 Y64.704
G1 F600 X48.593 Y62.169 E0.17886
G1 X48.523 Y62.099
G0 F1800 X49.158 Y62.169
G1 F600 X51.726 Y64.737 E0.18119
G1 X51.796 Y64.807
G0 F1800 X52.325 Y64.77
G1 F600 X49.724 Y62.169 E0.18351
G1 X49.654 Y62.099
G0 F1800 X50.29 Y62.169
G1 F600 X52.916 Y64.795 E0.18528
G1 X52.986 Y64.865
G0 F1800 X53.493 Y64.807
G1 F600 X50.855 Y62.169 E0.18613
G1 X50.785 Y62.099
G0 F1800 X51.421 Y62.169
G1 F600 X54.069 Y64.817 E0.18683
G1 X54.139 Y64.887
G0 F1800 X54.646 Y64.828
G1 F600 X51.987 Y62.169 E0.18761
G1 X51.917 Y62.099
G0 F1800 X52.552 Y62.169
G1 F600 X55.213 Y64.829 E0.18771
G1 X55.283 Y64.899
G0 F1800 X55.778 Y64.829
G1 F600 X53.118 Y62.169 E0.18768
G1 X53.048 Y62.099
G0 F1800 X53.684 Y62.169
G1 F600 X56.344 Y64.829 E0.18768
G1 X56.414 Y64.899
G0 F1800 X56.91 Y64.829
G1 F600 X54.249 Y62.169 E0.18771
G1 X54.179 Y62.099
G0 F1800 X54.815 Y62.169
G1 F600 X57.475 Y64.829 E0.18768
G1 X57.545 Y64.899
G0 F1800 X58.041 Y64.829
G1 F600 X55.381 Y62.169 E0.18768
G1 X55.311 Y62.099
G0 F1800 X55.946 Y62.169
G1 F600 X58.607 Y64.829 E0.18771
G1 X58.677 Y64.899
G0 F1800 X59.172 Y64.829
G1 F600 X56.512 Y62.169 E0.18768
G1 X56.442 Y62.099
G0 F1800 X57.078 Y62.169
G1 F600 X59.738 Y64.829 E0.18768
G1 X59.808 Y64.899
G0 F1800 X60.304 Y64.829
G1 F600 X57.644 Y62.169 E0.18768
G1 X57.574 Y62.099
G0 F1800 X58.209 Y62.169
G1 F600 X60.869 Y64.829 E0.18768
G1 X60.939 Y64.899
G0 F1800 X61.435 Y64.829
G1 F600 X58.775 Y62.169 E0.18768
G1 X58.705 Y62.099
G0 F1800 X59.341 Y62.169
G1 F600 X62.001 Y64.829 E0.18768
G1 X62.071 Y64.899
G0 F1800 X62.566 Y64.829
G1 F600 X59.906 Y62.169 E0.18768
G1 X59.836 Y62.099
G0 F1800 X60.472 Y62.169
G1 F600 X63.132 Y64.829 E0.18768
G1 X63.202 Y64.899
G0 F1800 X63.698 Y64.829
G1 F600 X61.038 Y62.169 E0.18768
G1 X60.968 Y62.099
G0 F1800 X61.603 Y62.169
G1 F600 X64.263 Y64.829 E0.18768
G1 X64.333 Y64.899
G0 F1800 X64.829 Y64.829
G1 F600 X62.169 Y62.169 E0.18768
G1 X62.099 Y62.099
G0 F1800 X62.735 Y62.169
G1 F600 X65.395 Y64.829 E0.18768
G1 X65.465 Y64.899
G0 F1800 X65.961 Y64.829
G1 F600 X63.3 Y62.169 E0.18771
G1 X63.23 Y62.099
G0 F1800 X63.866 Y62.169
G1 F600 X66.526 Y64.829 E0.18768
G1 X66.596 Y64.899
G0 F1800 X67.092 Y64.829
G1 F600 X64.432 Y62.169 E0.18768
G1 X64.362 Y62.099
G0 F1800 X64.997 Y62.169
G1 F600 X67.658 Y64.829 E0.18771
G1 X67.728 Y64.899
G0 F1800 X68.223 Y64.829
G1 F600 X65.563 Y62.169 E0.18768
G1 X65.493 Y62.099
G0 F1800 X66.129 Y62.169
G1 F600 X68.789 Y64.829 E0.18768
G1 X68.859 Y64.899
G0 F1800 X69.355 Y64.829
G1 F600 X66.695 Y62.169 E0.18768
G1 X66.625 Y62.099
G0 F1800 X67.26 Y62.169
G1 F600 X69.92 Y64.829 E0.18768
G1 X69.99 Y64.899
G0 F1800 X70.486 Y64.829
G1 F600 X67.826 Y62.169 E0.18768
G1 X67.756 Y62.099
G0 F1800 X68.392 Y62.169
G1 F600 X71.052 Y64.829 E0.18768
G1 X71.122 Y64.899
G0 F1800 X71.617 Y64.829
G1 F600 X68.957 Y62.169 E0.18768
G1 X68.887 Y62.099
G0 F1800 X69.523 Y62.169
G1 F600 X72.183 Y64.829 E0.18768
G1 X72.253 Y64.899
G0 F1800 X72.749 Y64.829
G1 F600 X70.089 Y62.169 E0.18768
G1 X70.019 Y62.099
G0 F1800 X70.654 Y62.169
G1 F600 X73.314 Y64.829 E0.18768
G1 X73.384 Y64.899
G0 F1800 X73.88 Y64.829
G1 F600 X71.22 Y62.169 E0.18768
G1 X71.15 Y62.099
G0 F1800 X71.786 Y62.169
G1 F600 X74.446 Y64.829 E0.18768
G1 X74.516 Y64.899
G0 F1800 X75.012 Y64.829
G1 F600 X72.351 Y62.169 E0.18771
G1 X72.281 Y62.099
G0 F1800 X72.917 Y62.169
G1 F600 X75.577 Y64.829 E0.18768
G1 X75.647 Y64.899
G0 F1800 X76.143 Y64.829
G1 F600 X73.483 Y62.169 E0.18768
G1 X73.413 Y62.099
G0 F1800 X74.048 Y62.169
G1 F600 X76.709 Y64.829 E0.18771
G1 X76.779 Y64.899
G0 F1800 X77.274 Y64.829
G1 F600 X74.614 Y62.169 E0.18768
G1 X74.544 Y62.099
G0 F1800 X75.18 Y62.169
G1 F600 X77.84 Y64.829 E0.18768
G1 X77.91 Y64.899
G0 F1800 X78.406 Y64.829
G1 F600 X75.745 Y62.169 E0.18771
G1 X75.675 Y62.099
G0 F1800 X76.311 Y62.169
G1 F600 X78.971 Y64.829 E0.18768
G1 X79.041 Y64.899
G0 F1800 X79.537 Y64.829
G1 F600 X76.877 Y62.169 E0.18768
G1 X76.807 Y62.099
G0 F1800 X77.443 Y62.169
G1 F600 X80.103 Y64.829 E0.18768
G1 X80.173 Y64.899
G0 F1800 X80.668 Y64.829
G1 F600 X78.008 Y62.169 E0.18768
G1 X77.938 Y62.099
G0 F1800 X78.574 Y62.169
G1 F600 X81.234 Y64.829 E0.18768
G1 X81.304 Y64.899
G0 F1800 X81.8 Y64.829
G1 F600 X79.14 Y62.169 E0.18768
G1 X79.07 Y62.099
G0 F1800 X79.705 Y62.169
G1 F600 X82.365 Y64.829 E0.18768
G1 X82.435 Y64.899
G0 F1800 X82.931 Y64.829
G1 F600 X80.271 Y62.169 E0.18768
G1 X80.201 Y62.099
G0 F1800 X80.837 Y62.169
G1 F600 X83.497 Y64.829 E0.18768
G1 X83.567 Y64.899
G0 F1800 X84.062 Y64.829
G1 F600 X81.402 Y62.169 E0.18768
G1 X81.332 Y62.099
G0 F1800 X81.968 Y62.169
G1 F600 X84.628 Y64.829 E0.18768
G1 X84.698 Y64.899
G0 F1800 X85.194 Y64.829
G1 F600 X82.534 Y62.169 E0.18768
G1 X82.464 Y62.099
G0 F1800 X83.099 Y62.169
G1 F600 X85.76 Y64.829 E0.18771
G1 X85.83 Y64.899
G0 F1800 X86.325 Y64.829
G1 F600 X83.665 Y62.169 E0.18768
G1 X83.595 Y62.099
G0 F1800 X84.231 Y62.169
G1 F600 X86.891 Y64.829 E0.18768
G1 X86.961 Y64.899
G0 F1800 X87.457 Y64.829
G1 F600 X84.796 Y62.169 E0.18771
G1 X84.726 Y62.099
G0 F1800 X85.362 Y62.169
G1 F600 X88.022 Y64.829 E0.18768
G1 X88.092 Y64.899
G0 F1800 X88.588 Y64.829
G1 F600 X85.928 Y62.169 E0.18768
G1 X85.858 Y62.099
G0 F1800 X86.494 Y62.169
G1 F600 X89.154 Y64.829 E0.18768
G1 X89.224 Y64.899
G0 F1800 X89.719 Y64.829
G1 F600 X87.059 Y62.169 E0.18768
G1 X86.989 Y62.099
G0 F1800 X87.625 Y62.169
G1 F600 X90.285 Y64.829 E0.18768
G1 X90.355 Y64.899
G0 F1800 X90.851 Y64.829
G1 F600 X88.191 Y62.169 E0.18768
G1 X88.121 Y62.099
G0 F1800 X88.756 Y62.169
G1 F600 X91.361 Y64.773 E0.18376
G1 X91.431 Y64.843
G0 F1800 X91.744 Y64.592
G1 F600 X89.322 Y62.169 E0.17092
G1 X89.252 Y62.099
G0 F1800 X89.888 Y62.169
G1 F600 X92.039 Y64.321 E0.1518
G1 X92.109 Y64.391
G0 F1800 X92.245 Y63.961
G1 F600 X90.453 Y62.169 E0.12644
G1 X90.383 Y62.099
G0 F1800 X91.025 Y62.175
G1 F600 X92.325 Y63.475 E0.09172
G1 X92.395 Y63.545
G0 F1800 X36.113 Y61.901
G0 X36.079 Y61.993
;TIME_ELAPSED:80.866970
;LAYER:1
M106 S255
G0 F3600 X36.079 Y61.993 Z0.5
;TYPE:WALL-INNER
G1 F1600 X35.549 Y61.797 E0.01879
G1 X35.072 Y61.6 E0.01716
G1 X35.549 Y61.6 E0.00366
G1 X36.115 Y61.6 E0.01413
G1 X90.98 Y61.6 E1.82482
G1 X91.343 Y61.632 E0.01212
G1 X91.653 Y61.714 E0.01067
G1 X91.951 Y61.854 E0.01095
G1 X92.227 Y62.047 E0.0112
G1 X92.453 Y62.273 E0.01063
G1 X92.646 Y62.549 E0.0112
G1 X92.786 Y62.847 E0.01095
G1 X92.869 Y63.157 E0.01067
G1 X92.897 Y63.491 E0.01115
G1 X92.869 Y63.843 E0.01174
G1 X92.786 Y64.153 E0.01067
G1 X92.646 Y64.451 E0.01095
G1 X92.453 Y64.727 E0.0112
G1 X92.227 Y64.953 E0.01063
G1 X91.951 Y65.146 E0.0112
G1 X91.653 Y65.286 E0.01095
G1 X91.343 Y65.368 E0.01067
G1 X90.98 Y65.4 E0.01212
G1 X54.655 Y65.4 E1.20817
G1 X52.686 Y65.363 E0.0655
G1 X50.737 Y65.255 E0.06492
G1 X48.795 Y65.072 E0.06488
G1 X46.847 Y64.817 E0.06534
G1 X44.938 Y64.493 E0.0644
G1 X43.002 Y64.091 E0.06577
G1 X41.104 Y63.621 E0.06503
G1 X39.247 Y63.087 E0.06427
G1 X37.375 Y62.473 E0.06553
G1 X36.079 Y61.993 E0.04597
G0 F3600 X36.113 Y61.901
G0 X35.17 Y61.619
G0 X34.011 Y61.594
;TYPE:WALL-OUTER
G1 F1000 X33.7 Y61.466 E0.01119
G1 X33.7 Y61.2 E0.00885
G1 X34.037 Y61.2 E0.00937
G1 X91.003 Y61.2 E1.8947
G1 X91.407 Y61.235 E0.01349
G1 X91.793 Y61.338 E0.01329
G1 X92.153 Y61.507 E0.01323
G1 X92.486 Y61.74 E0.01352
G1 X92.76 Y62.014 E0.01289
G1 X92.993 Y62.347 E0.01352
G1 X93.162 Y62.707 E0.01323
G1 X93.265 Y63.093 E0.01329
G1 X93.299 Y63.491 E0.01329
G1 X93.265 Y63.907 E0.01388
G1 X93.162 Y64.293 E0.01329
G1 X92.993 Y64.653 E0.01323
G1 X92.76 Y64.986 E0.01352
G1 X92.486 Y65.26 E0.01289
G1 X92.153 Y65.493 E0.01352
G1 X91.793 Y65.662 E0.01323
G1 X91.407 Y65.765 E0.01329
G1 X91.003 Y65.8 E0.01349
G1 X54.647 Y65.8 E1.20921
G1 X52.678 Y65.763 E0.0655
G1 X50.704 Y65.653 E0.06576
G1 X48.743 Y65.469 E0.06551
G1 X46.795 Y65.214 E0.06534
G1 X44.856 Y64.885 E0.06541
G1 X42.92 Y64.482 E0.06577
G1 X41.008 Y64.009 E0.06551
G1 X39.122 Y63.467 E0.06527
G1 X37.25 Y62.853 E0.06553
G1 X35.396 Y62.167 E0.06575
G1 X34.011 Y61.594 E0.04985
G0 F3600 X33.826 Y61.518
G0 X35.17 Y61.619
G0 X37.194 Y61.99
;TYPE:SKIN
G1 F1000 X90.967 Y61.99 E1.7885
G1 X91.275 Y62.017 E0.01028
G1 X91.518 Y62.082 E0.00837
G1 X91.752 Y62.192 E0.0086
G1 X91.983 Y62.353 E0.00937
G1 X92.147 Y62.517 E0.00771
G1 X92.308 Y62.748 E0.00937
G1 X92.418 Y62.98 E0.00854
G1 X92.485 Y63.229 E0.00858
G1 X92.507 Y63.491 E0.00874
G1 X92.485 Y63.771 E0.00934
G1 X92.418 Y64.02 E0.00858
G1 X92.308 Y64.252 E0.00854
G1 X92.147 Y64.483 E0.00937
G1 X91.983 Y64.647 E0.00771
G1 X91.752 Y64.808 E0.00937
G1 X91.518 Y64.918 E0.0086
G1 X91.275 Y64.983 E0.00837
G1 X90.967 Y65.01 E0.01028
G1 X54.663 Y65.01 E1.20748
G1 X52.708 Y64.973 E0.06504
G1 X50.759 Y64.865 E0.06492
G1 X48.832 Y64.684 E0.06437
G1 X46.908 Y64.433 E0.06453
G1 X45.018 Y64.111 E0.06377
G1 X43.082 Y63.709 E0.06577
G1 X41.205 Y63.245 E0.06431
G1 X39.362 Y62.714 E0.06379
G1 X37.503 Y62.104 E0.06507
G1 X37.194 Y61.99 E0.01095
G0 F3600 X38.462 Y62.229
G0 X38.492 Y62.198
G1 F1000 X38.988 Y62.268 E0.00612
G1 X39.484 Y62.338 E0.0127
G1 X39.985 Y62.403 E0.01903
G1 X40.487 Y62.466 E0.02507
G1 X40.119 Y62.834
G0 F3600 X40.628 Y62.891
G1 F1000 X41.351 Y62.168 E0.03401
G1 X41.421 Y62.098
G0 F3600 X41.917 Y62.168
G1 F1000 X41.068 Y63.018 E0.03996
G1 X40.998 Y63.088
G0 F3600 X41.515 Y63.136
G1 F1000 X42.482 Y62.168 E0.04551
G1 X42.552 Y62.098
G0 F3600 X43.048 Y62.168
G1 F1000 X41.969 Y63.247 E0.05075
G1 X41.899 Y63.317
G0 F3600 X42.422 Y63.36
G1 F1000 X43.614 Y62.168 E0.05607
G1 X43.684 Y62.098
G0 F3600 X44.18 Y62.168
G1 F1000 X42.876 Y63.472 E0.06134
G1 X42.806 Y63.542
G0 F3600 X43.337 Y63.577
G1 F1000 X44.745 Y62.168 E0.06625
G1 X44.815 Y62.098
G0 F3600 X45.311 Y62.168
G1 F1000 X43.805 Y63.674 E0.07084
G1 X43.735 Y63.744
G0 F3600 X44.273 Y63.772
G1 F1000 X45.877 Y62.168 E0.07545
G1 X45.947 Y62.098
G0 F3600 X46.442 Y62.168
G1 F1000 X44.742 Y63.869 E0.07999
G1 X44.672 Y63.939
G0 F3600 X45.215 Y63.962
G1 F1000 X47.008 Y62.168 E0.08436
G1 X47.078 Y62.098
G0 F3600 X47.574 Y62.168
G1 F1000 X45.698 Y64.044 E0.08824
G1 X45.628 Y64.114
G0 F3600 X46.181 Y64.126
G1 F1000 X48.139 Y62.168 E0.0921
G1 X48.209 Y62.098
G0 F3600 X48.705 Y62.168
G1 F1000 X46.665 Y64.208 E0.09596
G1 X46.595 Y64.278
G0 F3600 X47.156 Y64.283
G1 F1000 X49.271 Y62.168 E0.09948
G1 X49.341 Y62.098
G0 F3600 X49.836 Y62.168
G1 F1000 X47.656 Y64.349 E0.10256
G1 X47.586 Y64.419
G0 F3600 X48.156 Y64.414
G1 F1000 X50.402 Y62.168 E0.10564
G1 X50.472 Y62.098
G0 F3600 X50.968 Y62.168
G1 F1000 X48.657 Y64.479 E0.1087
G1 X48.587 Y64.549
G0 F3600 X49.167 Y64.534
G1 F1000 X51.533 Y62.168 E0.11129
G1 X51.603 Y62.098
G0 F3600 X52.099 Y62.168
G1 F1000 X49.684 Y64.583 E0.11359
G1 X49.614 Y64.653
G0 F3600 X50.202 Y64.631
G1 F1000 X52.665 Y62.168 E0.11585
G1 X52.735 Y62.098
G0 F3600 X53.23 Y62.168
G1 F1000 X50.719 Y64.68 E0.11813
G1 X50.649 Y64.75
G0 F3600 X51.253 Y64.711
G1 F1000 X53.796 Y62.168 E0.11961
G1 X53.866 Y62.098
G0 F3600 X54.362 Y62.168
G1 F1000 X51.789 Y64.741 E0.12103
G1 X51.719 Y64.811
G0 F3600 X52.325 Y64.77
G1 F1000 X54.928 Y62.168 E0.12241
G1 X54.998 Y62.098
G0 F3600 X55.493 Y62.168
G1 F1000 X52.866 Y64.795 E0.12357
G1 X52.796 Y64.865
G0 F3600 X53.421 Y64.806
G1 F1000 X56.059 Y62.168 E0.12408
G1 X56.129 Y62.098
G0 F3600 X56.625 Y62.168
G1 F1000 X53.976 Y64.816 E0.12458
G1 X53.906 Y64.886
G0 F3600 X54.532 Y64.827
G1 F1000 X57.19 Y62.168 E0.12505
G1 X57.26 Y62.098
G0 F3600 X57.756 Y62.168
G1 F1000 X55.095 Y64.829 E0.12517
G1 X55.025 Y64.899
G0 F3600 X55.661 Y64.829
G1 F1000 X58.322 Y62.168 E0.12517
G1 X58.392 Y62.098
G0 F3600 X58.887 Y62.168
G1 F1000 X56.227 Y64.829 E0.12514
G1 X56.157 Y64.899
G0 F3600 X56.792 Y64.829
G1 F1000 X59.453 Y62.168 E0.12517
G1 X59.523 Y62.098
