;FLAVOR:Marlin
;TIME:19575
;Filament used: 17.1281m
;Layer height: 0.2
;POSTPROCESSED
;Generated with Cura_SteamEngine 3.4.0
M104 S190
M109 S190
M82 ;absolute extrusion mode

M83 ;relative extrusion mode
G1 F2400 E-1
;LAYER_COUNT:24
;LAYER:0
M107
G0 F1800 X111.9 Y111.9 Z0.3
;TYPE:WALL-INNER
G1 F2400 E1
G1 F600 X13.1 Y111.9 E4.92915
G1 X13.1 Y13.1 E4.92915
G1 X111.9 Y13.1 E4.92915
G1 X111.9 Y111.9 E4.92915
G0 F1800 X112.3 Y112.3
;TYPE:WALL-OUTER
G1 F600 X12.7 Y112.3 E4.96906
G1 X12.7 Y12.7 E4.96906
G1 X112.3 Y12.7 E4.96906
G1 X112.3 Y112.3 E4.96906
G0 F1800 X112.1 Y112.3
G0 X111.83 Y111.83
G0 X111.51 Y111.51
;TYPE:SKIN
G1 F600 X13.49 Y111.51 E4.89024
G1 X13.49 Y13.49 E4.89024
G1 X111.51 Y13.49 E4.89024
G1 X111.51 Y111.51 E4.89024
G0 F1800 X111.329 Y14.031
G1 F600 X110.967 Y13.669 E0.02554
G0 F1800 X110.401 Y13.669
G1 F600 X111.329 Y14.597 E0.06548
G1 X111.399 Y14.667
G0 F1800 X111.329 Y15.163
G1 F600 X109.836 Y13.669 E0.10537
G1 X109.766 Y13.599
G0 F1800 X109.27 Y13.669
G1 F600 X111.329 Y15.728 E0.14527
G1 X111.399 Y15.798
G0 F1800 X111.329 Y16.294
G1 F600 X108.704 Y13.669 E0.18521
G1 X108.634 Y13.599
G0 F1800 X108.139 Y13.669
G1 F600 X111.329 Y16.86 E0.22511
G1 X111.399 Y16.93
G0 F1800 X111.329 Y17.425
G1 F600 X107.573 Y13.669 E0.26501
G1 X107.503 Y13.599
G0 F1800 X107.007 Y13.669
G1 F600 X111.329 Y17.991 E0.30494
G1 X111.399 Y18.061
G0 F1800 X111.329 Y18.557
G1 F600 X106.442 Y13.669 E0.34484
G1 X106.372 Y13.599
G0 F1800 X105.876 Y13.669
G1 F600 X111.329 Y19.122 E0.38474
G1 X111.399 Y19.192
G0 F1800 X111.329 Y19.688
G1 F600 X105.31 Y13.669 E0.42467
G1 X105.24 Y13.599
G0 F1800 X104.745 Y13.669
G1 F600 X111.329 Y20.254 E0.46457
G1 X111.399 Y20.324
G0 F1800 X111.329 Y20.82
G1 F600 X104.179 Y13.669 E0.50451
G1 X104.109 Y13.599
G0 F1800 X103.613 Y13.669
G1 F600 X111.329 Y21.385 E0.54441
G1 X111.399 Y21.455
G0 F1800 X111.329 Y21.951
G1 F600 X103.048 Y13.669 E0.5843
G1 X102.978 Y13.599
G0 F1800 X102.482 Y13.669
G1 F600 X111.329 Y22.517 E0.62424
G1 X111.399 Y22.587
G0 F1800 X111.329 Y23.082
G1 F600 X101.916 Y13.669 E0.66414
G1 X101.846 Y13.599
G0 F1800 X101.351 Y13.669
G1 F600 X111.329 Y23.648 E0.70404
G1 X111.399 Y23.718
G0 F1800 X111.329 Y24.214
G1 F600 X100.785 Y13.669 E0.74397
G1 X100.715 Y13.599
G0 F1800 X100.219 Y13.669
G1 F600 X111.329 Y24.779 E0.78387
G1 X111.399 Y24.849
G0 F1800 X111.329 Y25.345
G1 F600 X99.653 Y13.669 E0.8238
G1 X99.583 Y13.599
G0 F1800 X99.088 Y13.669
G1 F600 X111.329 Y25.911 E0.8637
G1 X111.399 Y25.981
G0 F1800 X111.329 Y26.476
G1 F600 X98.522 Y13.669 E0.9036
G1 X98.452 Y13.599
G0 F1800 X97.956 Y13.669
G1 F600 X111.329 Y27.042 E0.94354
G1 X111.399 Y27.112
G0 F1800 X111.329 Y27.608
G1 F600 X97.391 Y13.669 E0.98344
G1 X97.321 Y13.599
G0 F1800 X96.825 Y13.669
G1 F600 X111.329 Y28.173 E1.02334
G1 X111.399 Y28.243
G0 F1800 X111.329 Y28.739
G1 F600 X96.259 Y13.669 E1.06327
G1 X96.189 Y13.599
G0 F1800 X95.694 Y13.669
G1 F600 X111.329 Y29.305 E1.10317
G1 X111.399 Y29.375
G0 F1800 X111.329 Y29.871
G1 F600 X95.128 Y13.669 E1.1431
G1 X95.058 Y13.599
G0 F1800 X94.562 Y13.669
G1 F600 X111.329 Y30.436 E1.183
G1 X111.399 Y30.506
G0 F1800 X111.329 Y31.002
G1 F600 X93.997 Y13.669 E1.2229
G1 X93.927 Y13.599
G0 F1800 X93.431 Y13.669
G1 F600 X111.329 Y31.568 E1.26284
G1 X111.399 Y31.638
G0 F1800 X111.329 Y32.133
G1 F600 X92.865 Y13.669 E1.30273
G1 X92.795 Y13.599
G0 F1800 X92.3 Y13.669
G1 F600 X111.329 Y32.699 E1.34263
G1 X111.399 Y32.769
G0 F1800 X111.329 Y33.265
G1 F600 X91.734 Y13.669 E1.38257
G1 X91.664 Y13.599
G0 F1800 X91.168 Y13.669
G1 F600 X111.329 Y33.83 E1.42247
G1 X111.399 Y33.9
G0 F1800 X111.329 Y34.396
G1 F600 X90.603 Y13.669 E1.46237
G1 X90.533 Y13.599
G0 F1800 X90.037 Y13.669
G1 F600 X111.329 Y34.962 E1.5023
G1 X111.399 Y35.032
G0 F1800 X111.329 Y35.527
G1 F600 X89.471 Y13.669 E1.5422
G1 X89.401 Y13.599
G0 F1800 X88.905 Y13.669
G1 F600 X111.329 Y36.093 E1.58213
G1 X111.399 Y36.163
G0 F1800 X111.329 Y36.659
G1 F600 X88.34 Y13.669 E1.62203
G1 X88.27 Y13.599
G0 F1800 X87.774 Y13.669
G1 F600 X111.329 Y37.224 E1.66193
G1 X111.399 Y37.294
G0 F1800 X111.329 Y37.79
G1 F600 X87.208 Y13.669 E1.70187
G1 X87.138 Y13.599
G0 F1800 X86.643 Y13.669
G1 F600 X111.329 Y38.356 E1.74177
G1 X111.399 Y38.426
G0 F1800 X111.329 Y38.921
G1 F600 X86.077 Y13.669 E1.78166
G1 X86.007 Y13.599
G0 F1800 X85.511 Y13.669
G1 F600 X111.329 Y39.487 E1.8216
G1 X111.399 Y39.557
G0 F1800 X111.329 Y40.053
G1 F600 X84.946 Y13.669 E1.8615
G1 X84.876 Y13.599
G0 F1800 X84.38 Y13.669
G1 F600 X111.329 Y40.619 E1.90143
G1 X111.399 Y40.689
G0 F1800 X111.329 Y41.184
G1 F600 X83.814 Y13.669 E1.94133
G1 X83.744 Y13.599
G0 F1800 X83.249 Y13.669
G1 F600 X111.329 Y41.75 E1.98123
G1 X111.399 Y41.82
G0 F1800 X111.329 Y42.316
G1 F600 X82.683 Y13.669 E2.02117
G1 X82.613 Y13.599
G0 F1800 X82.117 Y13.669
G1 F600 X111.329 Y42.881 E2.06106
G1 X111.399 Y42.951
G0 F1800 X111.329 Y43.447
G1 F600 X81.552 Y13.669 E2.10096
G1 X81.482 Y13.599
G0 F1800 X80.986 Y13.669
G1 F600 X111.329 Y44.013 E2.1409
G1 X111.399 Y44.083
G0 F1800 X111.329 Y44.578
G1 F600 X80.42 Y13.669 E2.1808
G1 X80.35 Y13.599
G0 F1800 X79.854 Y13.669
G1 F600 X111.329 Y45.144 E2.22073
G1 X111.399 Y45.214
G0 F1800 X111.329 Y45.71
G1 F600 X79.289 Y13.669 E2.26063
G1 X79.219 Y13.599
G0 F1800 X78.723 Y13.669
G1 F600 X111.329 Y46.275 E2.30053
G1 X111.399 Y46.345
G0 F1800 X111.329 Y46.841
G1 F600 X78.157 Y13.669 E2.34046
G1 X78.087 Y13.599
G0 F1800 X77.592 Y13.669
G1 F600 X111.329 Y47.407 E2.38036
G1 X111.399 Y47.477
G0 F1800 X111.329 Y47.972
G1 F600 X77.026 Y13.669 E2.42026
G1 X76.956 Y13.599
G0 F1800 X76.46 Y13.669
G1 F600 X111.329 Y48.538 E2.4602
G1 X111.399 Y48.608
G0 F1800 X111.329 Y49.104
G1 F600 X75.895 Y13.669 E2.5001
G1 X75.825 Y13.599
G0 F1800 X75.329 Y13.669
G1 F600 X111.329 Y49.67 E2.54003
G1 X111.399 Y49.74
G0 F1800 X111.329 Y50.235
G1 F600 X74.763 Y13.669 E2.57993
G1 X74.693 Y13.599
G0 F1800 X74.198 Y13.669
G1 F600 X111.329 Y50.801 E2.61983
G1 X111.399 Y50.871
G0 F1800 X111.329 Y51.367
G1 F600 X73.632 Y13.669 E2.65976
G1 X73.562 Y13.599
G0 F1800 X73.066 Y13.669
G1 F600 X111.329 Y51.932 E2.69966
G1 X111.399 Y52.002
G0 F1800 X111.329 Y52.498
G1 F600 X72.501 Y13.669 E2.73956
G1 X72.431 Y13.599
G0 F1800 X71.935 Y13.669
G1 F600 X111.329 Y53.064 E2.77949
G1 X111.399 Y53.134
G0 F1800 X111.329 Y53.629
G1 F600 X71.369 Y13.669 E2.81939
G1 X71.299 Y13.599
G0 F1800 X70.804 Y13.669
G1 F600 X111.329 Y54.195 E2.85929
G1 X111.399 Y54.265
G0 F1800 X111.329 Y54.761
G1 F600 X70.238 Y13.669 E2.89923
G1 X70.168 Y13.599
G0 F1800 X69.672 Y13.669
G1 F600 X111.329 Y55.326 E2.93913
G1 X111.399 Y55.396
G0 F1800 X111.329 Y55.892
G1 F600 X69.106 Y13.669 E2.97906
G1 X69.036 Y13.599
G0 F1800 X68.541 Y13.669
G1 F600 X111.329 Y56.458 E3.01896
G1 X111.399 Y56.528
G0 F1800 X111.329 Y57.023
G1 F600 X67.975 Y13.669 E3.05886
G1 X67.905 Y13.599
G0 F1800 X67.409 Y13.669
G1 F600 X111.329 Y57.589 E3.09879
G1 X111.399 Y57.659
G0 F1800 X111.329 Y58.155
G1 F600 X66.844 Y13.669 E3.13869
G1 X66.774 Y13.599
G0 F1800 X66.278 Y13.669
G1 F600 X111.329 Y58.72 E3.17859
G1 X111.399 Y58.79
G0 F1800 X111.329 Y59.286
G1 F600 X65.712 Y13.669 E3.21853
G1 X65.642 Y13.599
G0 F1800 X65.147 Y13.669
G1 F600 X111.329 Y59.852 E3.25842
G1 X111.399 Y59.922
G0 F1800 X111.329 Y60.418
G1 F600 X64.581 Y13.669 E3.29836
G1 X64.511 Y13.599
G0 F1800 X64.015 Y13.669
G1 F600 X111.329 Y60.983 E3.33826
G1 X111.399 Y61.053
G0 F1800 X111.329 Y61.549
G1 F600 X63.45 Y13.669 E3.37816
G1 X63.38 Y13.599
G0 F1800 X62.884 Y13.669
G1 F600 X111.329 Y62.115 E3.41809
G1 X111.399 Y62.185
G0 F1800 X111.329 Y62.68
G1 F600 X62.318 Y13.669 E3.45799
G1 X62.248 Y13.599
G0 F1800 X61.753 Y13.669
G1 F600 X111.329 Y63.246 E3.49789
G1 X111.399 Y63.316
G0 F1800 X111.329 Y63.812
G1 F600 X61.187 Y13.669 E3.53782
G1 X61.117 Y13.599
G0 F1800 X60.621 Y13.669
G1 F600 X111.329 Y64.377 E3.57772
G1 X111.399 Y64.447
G0 F1800 X111.329 Y64.943
G1 F600 X60.055 Y13.669 E3.61766
G1 X59.985 Y13.599
G0 F1800 X59.49 Y13.669
G1 F600 X111.329 Y65.509 E3.65756
G1 X111.399 Y65.579
G0 F1800 X111.329 Y66.074
G1 F600 X58.924 Y13.669 E3.69746
G1 X58.854 Y13.599
G0 F1800 X58.358 Y13.669
G1 F600 X111.329 Y66.64 E3.73739
G1 X111.399 Y66.71
G0 F1800 X111.329 Y67.206
G1 F600 X57.793 Y13.669 E3.77729
G1 X57.723 Y13.599
G0 F1800 X57.227 Y13.669
G1 F600 X111.329 Y67.771 E3.81719
G1 X111.399 Y67.841
G0 F1800 X111.329 Y68.337
G1 F600 X56.661 Y13.669 E3.85712
G1 X56.591 Y13.599
G0 F1800 X56.096 Y13.669
G1 F600 X111.329 Y68.903 E3.89702
G1 X111.399 Y68.973
G0 F1800 X111.329 Y69.468
G1 F600 X55.53 Y13.669 E3.93692
G1 X55.46 Y13.599
G0 F1800 X54.964 Y13.669
G1 F600 X111.329 Y70.034 E3.97686
G1 X111.399 Y70.104
G0 F1800 X111.329 Y70.6
G1 F600 X54.399 Y13.669 E4.01675
G1 X54.329 Y13.599
G0 F1800 X53.833 Y13.669
G1 F600 X111.329 Y71.166 E4.05669
G1 X111.399 Y71.236
G0 F1800 X111.329 Y71.731
G1 F600 X53.267 Y13.669 E4.09659
G1 X53.197 Y13.599
G0 F1800 X52.702 Y13.669
G1 F600 X111.329 Y72.297 E4.13649
G1 X111.399 Y72.367
G0 F1800 X111.329 Y72.863
G1 F600 X52.136 Y13.669 E4.17642
G1 X52.066 Y13.599
G0 F1800 X51.57 Y13.669
G1 F600 X111.329 Y73.428 E4.21632
G1 X111.399 Y73.498
G0 F1800 X111.329 Y73.994
G1 F600 X51.005 Y13.669 E4.25622
G1 X50.935 Y13.599
G0 F1800 X50.439 Y13.669
G1 F600 X111.329 Y74.56 E4.29615
G1 X111.399 Y74.63
G0 F1800 X111.329 Y75.125
G1 F600 X49.873 Y13.669 E4.33605
G1 X49.803 Y13.599
G0 F1800 X49.307 Y13.669
G1 F600 X111.329 Y75.691 E4.37599
G1 X111.399 Y75.761
G0 F1800 X111.329 Y76.257
G1 F600 X48.742 Y13.669 E4.41589
G1 X48.672 Y13.599
G0 F1800 X48.176 Y13.669
G1 F600 X111.329 Y76.822 E4.45579
G1 X111.399 Y76.892
G0 F1800 X111.329 Y77.388
G1 F600 X47.61 Y13.669 E4.49572
G1 X47.54 Y13.599
G0 F1800 X47.045 Y13.669
G1 F600 X111.329 Y77.954 E4.53562
G1 X111.399 Y78.024
G0 F1800 X111.329 Y78.519
G1 F600 X46.479 Y13.669 E4.57552
G1 X46.409 Y13.599
G0 F1800 X45.913 Y13.669
G1 F600 X111.329 Y79.085 E4.61545
G1 X111.399 Y79.155
G0 F1800 X111.329 Y79.651
G1 F600 X45.348 Y13.669 E4.65535
G1 X45.278 Y13.599
G0 F1800 X44.782 Y13.669
G1 F600 X111.329 Y80.217 E4.69529
G1 X111.399 Y80.287
G0 F1800 X111.329 Y80.782
G1 F600 X44.216 Y13.669 E4.73518
G1 X44.146 Y13.599
G0 F1800 X43.651 Y13.669
G1 F600 X111.329 Y81.348 E4.77508
G1 X111.399 Y81.418
G0 F1800 X111.329 Y81.914
G1 F600 X43.085 Y13.669 E4.81502
G1 X43.015 Y13.599
G0 F1800 X42.519 Y13.669
G1 F600 X111.329 Y82.479 E4.85492
G1 X111.399 Y82.549
G0 F1800 X111.329 Y83.045
G1 F600 X41.954 Y13.669 E4.89482
G1 X41.884 Y13.599
G0 F1800 X41.388 Y13.669
G1 F600 X111.329 Y83.611 E4.93475
G1 X111.399 Y83.681
G0 F1800 X111.329 Y84.176
G1 F600 X40.822 Y13.669 E4.97465
G1 X40.752 Y13.599
G0 F1800 X40.257 Y13.669
G1 F600 X111.329 Y84.742 E5.01455
G1 X111.399 Y84.812
G0 F1800 X111.329 Y85.308
G1 F600 X39.691 Y13.669 E5.05448
G1 X39.621 Y13.599
G0 F1800 X39.125 Y13.669
G1 F600 X111.329 Y85.873 E5.09438
G1 X111.399 Y85.943
G0 F1800 X111.329 Y86.439
G1 F600 X38.559 Y13.669 E5.13432
G1 X38.489 Y13.599
G0 F1800 X37.994 Y13.669
G1 F600 X111.329 Y87.005 E5.17422
G1 X111.399 Y87.075
G0 F1800 X111.329 Y87.57
G1 F600 X37.428 Y13.669 E5.21411
G1 X37.358 Y13.599
G0 F1800 X36.862 Y13.669
G1 F600 X111.329 Y88.136 E5.25405
G1 X111.399 Y88.206
G0 F1800 X111.329 Y88.702
G1 F600 X36.297 Y13.669 E5.29395
G1 X36.227 Y13.599
G0 F1800 X35.731 Y13.669
G1 F600 X111.329 Y89.267 E5.33385
G1 X111.399 Y89.337
G0 F1800 X111.329 Y89.833
G1 F600 X35.165 Y13.669 E5.37378
G1 X35.095 Y13.599
G0 F1800 X34.6 Y13.669
G1 F600 X111.329 Y90.399 E5.41368
G1 X111.399 Y90.469
G0 F1800 X111.329 Y90.965
G1 F600 X34.034 Y13.669 E5.45362
G1 X33.964 Y13.599
G0 F1800 X33.468 Y13.669
G1 F600 X111.329 Y91.53 E5.49351
G1 X111.399 Y91.6
G0 F1800 X111.329 Y92.096
G1 F600 X32.903 Y13.669 E5.53341
G1 X32.833 Y13.599
G0 F1800 X32.337 Y13.669
G1 F600 X111.329 Y92.662 E5.57335
G1 X111.399 Y92.732
G0 F1800 X111.329 Y93.227
G1 F600 X31.771 Y13.669 E5.61325
G1 X31.701 Y13.599
G0 F1800 X31.206 Y13.669
G1 F600 X111.329 Y93.793 E5.65315
G1 X111.399 Y93.863
G0 F1800 X111.329 Y94.359
G1 F600 X30.64 Y13.669 E5.69308
G1 X30.57 Y13.599
G0 F1800 X30.074 Y13.669
G1 F600 X111.329 Y94.924 E5.73298
G1 X111.399 Y94.994
G0 F1800 X111.329 Y95.49
G1 F600 X29.508 Y13.669 E5.77291
G1 X29.438 Y13.599
G0 F1800 X28.943 Y13.669
G1 F600 X111.329 Y96.056 E5.81281
G1 X111.399 Y96.126
G0 F1800 X111.329 Y96.621
G1 F600 X28.377 Y13.669 E5.85271
G1 X28.307 Y13.599
G0 F1800 X27.811 Y13.669
G1 F600 X111.329 Y97.187 E5.89265
G1 X111.399 Y97.257
G0 F1800 X111.329 Y97.753
G1 F600 X27.246 Y13.669 E5.93255
G1 X27.176 Y13.599
G0 F1800 X26.68 Y13.669
G1 F600 X111.329 Y98.318 E5.97244
G1 X111.399 Y98.388
G0 F1800 X111.329 Y98.884
G1 F600 X26.114 Y13.669 E6.01238
G1 X26.044 Y13.599
G0 F1800 X25.549 Y13.669
G1 F600 X111.329 Y99.45 E6.05228
G1 X111.399 Y99.52
G0 F1800 X111.329 Y100.016
G1 F600 X24.983 Y13.669 E6.09221
G1 X24.913 Y13.599
G0 F1800 X24.417 Y13.669
G1 F600 X111.329 Y100.581 E6.13211
G1 X111.399 Y100.651
G0 F1800 X111.329 Y101.147
G1 F600 X23.852 Y13.669 E6.17201
G1 X23.782 Y13.599
G0 F1800 X23.286 Y13.669
G1 F600 X111.329 Y101.713 E6.21194
G1 X111.399 Y101.783
G0 F1800 X111.329 Y102.278
G1 F600 X22.72 Y13.669 E6.25184
G1 X22.65 Y13.599
G0 F1800 X22.155 Y13.669
G1 F600 X111.329 Y102.844 E6.29174
G1 X111.399 Y102.914
G0 F1800 X111.329 Y103.41
G1 F600 X21.589 Y13.669 E6.33168
G1 X21.519 Y13.599
G0 F1800 X21.023 Y13.669
G1 F600 X111.329 Y103.975 E6.37158
G1 X111.399 Y104.045
G0 F1800 X111.329 Y104.541
G1 F600 X20.458 Y13.669 E6.41148
G1 X20.388 Y13.599
G0 F1800 X19.892 Y13.669
G1 F600 X111.329 Y105.107 E6.45141
G1 X111.399 Y105.177
G0 F1800 X111.329 Y105.672
G1 F600 X19.326 Y13.669 E6.49131
G1 X19.256 Y13.599
G0 F1800 X18.76 Y13.669
G1 F600 X111.329 Y106.238 E6.53124
G1 X111.399 Y106.308
G0 F1800 X111.329 Y106.804
G1 F600 X18.195 Y13.669 E6.57114
G1 X18.125 Y13.599
G0 F1800 X17.629 Y13.669
G1 F600 X111.329 Y107.369 E6.61104
G1 X111.399 Y107.439
G0 F1800 X111.329 Y107.935
G1 F600 X17.063 Y13.669 E6.65098
G1 X16.993 Y13.599
G0 F1800 X16.498 Y13.669
G1 F600 X111.329 Y108.501 E6.69087
G1 X111.399 Y108.571
G0 F1800 X111.329 Y109.066
G1 F600 X15.932 Y13.669 E6.73077
G1 X15.862 Y13.599
G0 F1800 X15.366 Y13.669
G1 F600 X111.329 Y109.632 E6.77071
G1 X111.399 Y109.702
G0 F1800 X111.329 Y110.198
G1 F600 X14.801 Y13.669 E6.81061
G1 X14.731 Y13.599
G0 F1800 X14.235 Y13.669
G1 F600 X111.329 Y110.764 E6.85054
G1 X111.399 Y110.834
G0 F1800 X111.329 Y111.329
G1 F600 X13.669 Y13.669 E6.89044
G1 X13.599 Y13.599
G0 F1800 X13.669 Y14.235
G1 F600 X110.764 Y111.329 E6.85054
G1 X110.834 Y111.399
G0 F1800 X110.198 Y111.329
G1 F600 X13.669 Y14.801 E6.81061
G1 X13.599 Y14.731
G0 F1800 X13.669 Y15.366
G1 F600 X109.632 Y111.329 E6.77071
G1 X109.702 Y111.399
G0 F1800 X109.066 Y111.329
G1 F600 X13.669 Y15.932 E6.73077
G1 X13.599 Y15.862
G0 F1800 X13.669 Y16.498
G1 F600 X108.501 Y111.329 E6.69087
G1 X108.571 Y111.399
G0 F1800 X107.935 Y111.329
G1 F600 X13.669 Y17.063 E6.65098
G1 X13.599 Y16.993
G0 F1800 X13.669 Y17.629
G1 F600 X107.369 Y111.329 E6.61104
G1 X107.439 Y111.399
G0 F1800 X106.804 Y111.329
G1 F600 X13.669 Y18.195 E6.57114
G1 X13.599 Y18.125
G0 F1800 X13.669 Y18.76
G1 F600 X106.238 Y111.329 E6.53124
G1 X106.308 Y111.399
G0 F1800 X105.672 Y111.329
G1 F600 X13.669 Y19.326 E6.49131
G1 X13.599 Y19.256
G0 F1800 X13.669 Y19.892
G1 F600 X105.107 Y111.329 E6.45141
G1 X105.177 Y111.399
G0 F1800 X104.541 Y111.329
G1 F600 X13.669 Y20.458 E6.41148
G1 X13.599 Y20.388
G0 F1800 X13.669 Y21.023
G1 F600 X103.975 Y111.329 E6.37158
G1 X104.045 Y111.399
G0 F1800 X103.41 Y111.329
G1 F600 X13.669 Y21.589 E6.33168
G1 X13.599 Y21.519
G0 F1800 X13.669 Y22.155
G1 F600 X102.844 Y111.329 E6.29174
G1 X102.914 Y111.399
G0 F1800 X102.278 Y111.329
G1 F600 X13.669 Y22.72 E6.25184
G1 X13.599 Y22.65
G0 F1800 X13.669 Y23.286
G1 F600 X101.713 Y111.329 E6.21194
G1 X101.783 Y111.399
G0 F1800 X101.147 Y111.329
G1 F600 X13.669 Y23.852 E6.17201
G1 X13.599 Y23.782
G0 F1800 X13.669 Y24.417
G1 F600 X100.581 Y111.329 E6.13211
G1 X100.651 Y111.399
G0 F1800 X100.016 Y111.329
G1 F600 X13.669 Y24.983 E6.09221
G1 X13.599 Y24.913
G0 F1800 X13.669 Y25.549
G1 F600 X99.45 Y111.329 E6.05228
G1 X99.52 Y111.399
G0 F1800 X98.884 Y111.329
