;FLAVOR:Marlin
;TIME:487
;Filament used: 0.401705m
;Layer height: 0.2
;POSTPROCESSED
;Generated with Cura_SteamEngine 3.3.1
M104 S190
M109 S190
M82 ;absolute extrusion mode

M83 ;relative extrusion mode
G1 F2400 E-1
;LAYER_COUNT:25
;LAYER:0
M107
G0 F1800 X52.628 Y73.311 Z0.3
;TYPE:SKIRT
G1 F2400 E1
G1 F1800 X53.09 Y72.985 E0.02821
G1 X53.83 Y72.637 E0.0408
G1 X54.157 Y72.522 E0.01729
G1 X54.702 Y72.372 E0.0282
G1 X55.491 Y72.295 E0.03955
G1 X69.673 Y72.32 E0.70754
G1 X70.237 Y72.361 E0.02821
G1 X70.789 Y72.481 E0.02818
G1 X71.319 Y72.678 E0.02821
G1 X71.911 Y73.009 E0.03384
G1 X72.203 Y73.207 E0.0176
G1 X72.647 Y73.557 E0.02821
G1 X73.038 Y73.966 E0.02823
G1 X73.367 Y74.425 E0.02817
G1 X73.602 Y74.868 E0.02502
G1 X73.722 Y75.133 E0.01451
G1 X73.918 Y75.663 E0.02819
G1 X74.038 Y76.216 E0.02823
G1 X74.078 Y76.78 E0.02821
G1 X74.091 Y92.701 E0.7943
G1 X74.052 Y93.265 E0.02821
G1 X73.942 Y93.784 E0.02647
G1 X73.779 Y94.365 E0.03011
G1 X73.589 Y94.898 E0.02823
G1 X73.325 Y95.398 E0.02821
G1 X72.993 Y95.855 E0.02818
G1 X72.6 Y96.262 E0.02823
G1 X72.154 Y96.609 E0.02819
G1 X71.846 Y96.795 E0.01795
G1 X71.522 Y96.972 E0.01842
G1 X71.008 Y97.208 E0.02822
G1 X70.466 Y97.368 E0.02819
G1 X69.906 Y97.451 E0.02824
G1 X69.598 Y97.462 E0.01538
G1 X55.299 Y97.439 E0.71338
G1 X54.735 Y97.398 E0.02821
G1 X54.182 Y97.278 E0.02823
G1 X53.652 Y97.082 E0.02819
G1 X53.037 Y96.734 E0.03525
G1 X52.777 Y96.555 E0.01575
G1 X52.335 Y96.202 E0.02822
G1 X51.947 Y95.791 E0.0282
G1 X51.621 Y95.329 E0.02821
G1 X51.387 Y94.877 E0.02539
G1 X51.261 Y94.592 E0.01555
G1 X51.069 Y94.06 E0.02822
G1 X50.955 Y93.507 E0.02817
G1 X50.919 Y92.972 E0.02675
G1 X50.933 Y76.732 E0.81022
G1 X50.973 Y76.168 E0.02821
G1 X51.093 Y75.615 E0.02823
G1 X51.289 Y75.085 E0.02819
G1 X51.639 Y74.465 E0.03552
G1 X51.863 Y74.14 E0.01969
G1 X52.216 Y73.698 E0.02822
G1 X52.628 Y73.311 E0.0282
G0 X52.924 Y73.586
G1 X53.368 Y73.286 E0.02673
G1 X53.963 Y73.014 E0.03264
G1 X54.29 Y72.899 E0.01729
G1 X54.807 Y72.759 E0.02672
G1 X55.49 Y72.695 E0.03422
G1 X69.672 Y72.72 E0.70754
G1 X70.207 Y72.761 E0.02677
G1 X70.73 Y72.881 E0.02677
G1 X71.229 Y73.077 E0.02675
G1 X71.686 Y73.34 E0.02631
G1 X71.978 Y73.538 E0.0176
G1 X72.399 Y73.872 E0.02681
G1 X72.765 Y74.264 E0.02676
G1 X73.068 Y74.705 E0.02669
G1 X73.237 Y75.033 E0.01841
G1 X73.357 Y75.298 E0.01451
G1 X73.542 Y75.802 E0.02679
G1 X73.649 Y76.327 E0.02673
G1 X73.678 Y76.78 E0.02265
G1 X73.691 Y92.701 E0.7943
G1 X73.651 Y93.236 E0.02677
G1 X73.557 Y93.676 E0.02245
G1 X73.394 Y94.257 E0.03011
G1 X73.211 Y94.762 E0.0268
G1 X72.955 Y95.233 E0.02674
G1 X72.633 Y95.661 E0.02672
G1 X72.25 Y96.036 E0.02674
G1 X71.654 Y96.444 E0.03603
G1 X71.33 Y96.621 E0.01842
G1 X70.841 Y96.843 E0.02679
G1 X70.326 Y96.989 E0.02671
G1 X69.598 Y97.062 E0.0365
G1 X55.299 Y97.039 E0.71338
G1 X54.764 Y96.998 E0.02677
G1 X54.242 Y96.878 E0.02672
G1 X53.743 Y96.682 E0.02675
G1 X53.264 Y96.404 E0.02763
G1 X53.004 Y96.225 E0.01575
G1 X52.586 Y95.889 E0.02676
G1 X52.222 Y95.495 E0.02676
G1 X51.922 Y95.05 E0.02678
G1 X51.752 Y94.716 E0.0187
G1 X51.626 Y94.431 E0.01555
G1 X51.447 Y93.925 E0.02678
G1 X51.344 Y93.399 E0.02674
G1 X51.319 Y92.972 E0.02134
G1 X51.333 Y76.732 E0.81022
G1 X51.373 Y76.197 E0.02677
G1 X51.493 Y75.674 E0.02677
G1 X51.689 Y75.175 E0.02675
G1 X51.969 Y74.692 E0.02785
G1 X52.193 Y74.367 E0.01969
G1 X52.529 Y73.949 E0.02676
G1 X52.924 Y73.586 E0.02676
G0 X53.218 Y73.865
G1 X53.643 Y73.591 E0.02523
G1 X54.095 Y73.391 E0.02466
G1 X54.422 Y73.276 E0.01729
G1 X54.911 Y73.147 E0.02523
G1 X55.49 Y73.095 E0.029
G1 X69.672 Y73.12 E0.70754
G1 X70.176 Y73.161 E0.02523
G1 X70.667 Y73.281 E0.02522
G1 X71.133 Y73.476 E0.0252
G1 X71.462 Y73.671 E0.01908
G1 X71.754 Y73.869 E0.0176
G1 X72.149 Y74.185 E0.02524
G1 X72.489 Y74.56 E0.02525
G1 X72.873 Y75.198 E0.03715
G1 X72.993 Y75.463 E0.01451
G1 X73.165 Y75.939 E0.02525
G1 X73.259 Y76.435 E0.02519
G1 X73.278 Y76.78 E0.01724
G1 X73.291 Y92.701 E0.7943
G1 X73.251 Y93.205 E0.02522
G1 X73.172 Y93.568 E0.01853
G1 X73.009 Y94.149 E0.03011
G1 X72.834 Y94.624 E0.02525
G1 X72.587 Y95.065 E0.02522
G1 X72.274 Y95.462 E0.02522
G1 X71.902 Y95.804 E0.02521
G1 X71.462 Y96.093 E0.02626
G1 X71.138 Y96.27 E0.01842
G1 X70.677 Y96.477 E0.02521
G1 X70.188 Y96.608 E0.02526
G1 X69.599 Y96.662 E0.02951
G1 X55.3 Y96.639 E0.71338
G1 X54.796 Y96.598 E0.02523
G1 X54.305 Y96.479 E0.02521
G1 X53.838 Y96.283 E0.02527
G1 X53.49 Y96.075 E0.02023
G1 X53.23 Y95.896 E0.01575
G1 X52.838 Y95.577 E0.02521
G1 X52.501 Y95.201 E0.02519
G1 X52.118 Y94.554 E0.03751
G1 X51.992 Y94.269 E0.01555
G1 X51.825 Y93.792 E0.02521
G1 X51.735 Y93.294 E0.02525
G1 X51.719 Y92.972 E0.01608
G1 X51.733 Y76.732 E0.81022
G1 X51.773 Y76.228 E0.02522
G1 X51.893 Y75.737 E0.02522
G1 X52.088 Y75.271 E0.0252
G1 X52.298 Y74.919 E0.02045
G1 X52.522 Y74.594 E0.01969
G1 X52.841 Y74.202 E0.02521
G1 X53.218 Y73.865 E0.02523
G1 F2400 E-1
G0 F1800 X54.653 Y75.952
G0 X55.524 Y76.902
G0 X69.284 Y76.987
G0 X69.284 Y76.886
;TYPE:WALL-INNER
G1 F2400 E1
G1 F600 X69.472 Y76.886 E0.00938
G1 X69.496 Y76.892 E0.00123
G1 X69.496 Y77.08 E0.00938
G1 X69.496 Y92.88 E0.78827
G1 X55.723 Y92.884 E0.68714
G1 X55.542 Y92.884 E0.00903
G1 X55.504 Y92.877 E0.00193
G1 X55.504 Y92.696 E0.00903
G1 X55.51 Y76.888 E0.78866
G1 X69.284 Y76.886 E0.68719
G0 F1800 X69.493 Y76.486
;TYPE:WALL-OUTER
G1 F600 X69.591 Y76.496 E0.00491
G1 X69.677 Y76.527 E0.00456
G1 X69.754 Y76.576 E0.00455
G1 X69.85 Y76.692 E0.00751
G1 X69.887 Y76.793 E0.00537
G1 X69.899 Y76.884 E0.00458
G1 X69.898 Y92.877 E0.79789
G1 X69.889 Y92.973 E0.00481
G1 X69.856 Y93.062 E0.00474
G1 X69.809 Y93.135 E0.00433
G1 X69.731 Y93.207 E0.0053
G1 X69.653 Y93.252 E0.00449
G1 X69.591 Y93.271 E0.00324
G1 X69.5 Y93.283 E0.00458
G1 X55.503 Y93.284 E0.69831
G1 X55.371 Y93.26 E0.00669
G1 X55.281 Y93.214 E0.00504
G1 X55.237 Y93.183 E0.00269
G1 X55.188 Y93.134 E0.00346
G1 X55.146 Y93.068 E0.0039
G1 X55.111 Y92.97 E0.00519
G1 X55.101 Y92.877 E0.00467
G1 X55.11 Y76.8 E0.80208
G1 X55.144 Y76.707 E0.00494
G1 X55.194 Y76.629 E0.00462
G1 X55.308 Y76.534 E0.0074
G1 X55.409 Y76.497 E0.00537
G1 X55.5 Y76.485 E0.00458
G1 X69.493 Y76.486 E0.69811
G0 F1800 X69.591 Y76.496
G0 X69.677 Y76.527
G0 X69.686 Y76.532
G0 X69.418 Y76.954
G0 X69.106 Y77.276
;TYPE:SKIN
G1 F600 X69.106 Y92.49 E0.75903
G1 X55.894 Y92.494 E0.65915
G1 X55.9 Y77.278 E0.75913
G1 X69.106 Y77.276 E0.65885
G0 F1800 X68.926 Y77.977
G1 F600 X68.404 Y77.455 E0.03683
G0 F1800 X67.839 Y77.455
G1 F600 X68.926 Y78.543 E0.07673
G1 X68.996 Y78.613
G0 F1800 X68.926 Y79.108
G1 F600 X67.273 Y77.455 E0.11663
G1 X67.203 Y77.385
G0 F1800 X66.707 Y77.455
G1 F600 X68.926 Y79.674 E0.15656
G1 X68.996 Y79.744
G0 F1800 X68.926 Y80.24
G1 F600 X66.142 Y77.455 E0.19646
G1 X66.072 Y77.385
G0 F1800 X65.576 Y77.455
G1 F600 X68.926 Y80.806 E0.2364
G1 X68.996 Y80.876
G0 F1800 X68.926 Y81.371
G1 F600 X65.01 Y77.455 E0.27629
G1 X64.94 Y77.385
G0 F1800 X64.445 Y77.456
G1 F600 X68.926 Y81.937 E0.31616
G1 X68.996 Y82.007
G0 F1800 X68.926 Y82.503
G1 F600 X63.88 Y77.456 E0.35606
G1 X63.81 Y77.386
G0 F1800 X63.314 Y77.456
G1 F600 X68.926 Y83.068 E0.39596
G1 X68.996 Y83.138
G0 F1800 X68.926 Y83.634
G1 F600 X62.748 Y77.456 E0.43589
G1 X62.678 Y77.386
G0 F1800 X62.182 Y77.456
G1 F600 X68.926 Y84.2 E0.47583
G1 X68.996 Y84.27
G0 F1800 X68.926 Y84.765
G1 F600 X61.617 Y77.456 E0.51569
G1 X61.547 Y77.386
G0 F1800 X61.051 Y77.456
G1 F600 X68.926 Y85.331 E0.55562
G1 X68.996 Y85.401
G0 F1800 X68.926 Y85.897
G1 F600 X60.485 Y77.456 E0.59556
G1 X60.415 Y77.386
G0 F1800 X59.92 Y77.457
G1 F600 X68.926 Y86.462 E0.63539
G1 X68.996 Y86.532
G0 F1800 X68.926 Y87.028
G1 F600 X59.355 Y77.457 E0.67529
G1 X59.285 Y77.387
G0 F1800 X58.789 Y77.457
G1 F600 X68.926 Y87.594 E0.71522
G1 X68.996 Y87.664
G0 F1800 X68.926 Y88.159
G1 F600 X58.223 Y77.457 E0.75512
G1 X58.153 Y77.387
G0 F1800 X57.658 Y77.457
G1 F600 X68.926 Y88.725 E0.79502
G1 X68.996 Y88.795
G0 F1800 X68.926 Y89.291
G1 F600 X57.092 Y77.457 E0.83495
G1 X57.022 Y77.387
G0 F1800 X56.526 Y77.457
G1 F600 X68.926 Y89.857 E0.87489
G1 X68.996 Y89.927
G0 F1800 X68.926 Y90.422
G1 F600 X56.079 Y77.575 E0.90643
G1 X56.009 Y77.505
G0 F1800 X56.079 Y78.14
G1 F600 X68.926 Y90.988 E0.90646
G1 X68.996 Y91.058
G0 F1800 X68.926 Y91.554
G1 F600 X56.079 Y78.706 E0.90646
G1 X56.009 Y78.636
G0 F1800 X56.079 Y79.272
G1 F600 X68.926 Y92.119 E0.90643
G1 X68.996 Y92.189
G0 F1800 X68.55 Y92.309
G1 F600 X56.078 Y79.837 E0.87997
G1 X56.008 Y79.767
G0 F1800 X56.078 Y80.402
G1 F600 X67.984 Y92.309 E0.84007
G1 X68.054 Y92.379
G0 F1800 X67.419 Y92.309
G1 F600 X56.078 Y80.968 E0.80017
G1 X56.008 Y80.898
G0 F1800 X56.077 Y81.533
G1 F600 X66.853 Y92.309 E0.76031
G1 X66.923 Y92.379
G0 F1800 X66.288 Y92.309
G1 F600 X56.077 Y82.099 E0.72041
G1 X56.007 Y82.029
G0 F1800 X56.077 Y82.665
G1 F600 X65.722 Y92.309 E0.68047
G1 X65.792 Y92.379
G0 F1800 X65.157 Y92.309
G1 F600 X56.077 Y83.23 E0.64061
G1 X56.007 Y83.16
G0 F1800 X56.077 Y83.795
G1 F600 X64.592 Y92.31 E0.60078
G1 X64.662 Y92.38
G0 F1800 X64.026 Y92.31
G1 F600 X56.077 Y84.361 E0.56084
G1 X56.007 Y84.291
G0 F1800 X56.076 Y84.926
G1 F600 X63.46 Y92.31 E0.52098
G1 X63.53 Y92.38
G0 F1800 X62.895 Y92.31
G1 F600 X56.076 Y85.492 E0.48108
G1 X56.006 Y85.422
G0 F1800 X56.076 Y86.057
G1 F600 X62.33 Y92.311 E0.44125
G1 X62.4 Y92.381
G0 F1800 X61.764 Y92.311
G1 F600 X56.076 Y86.623 E0.40132
G1 X56.006 Y86.553
G0 F1800 X56.075 Y87.188
G1 F600 X61.198 Y92.311 E0.36146
G1 X61.268 Y92.381
G0 F1800 X60.632 Y92.311
G1 F600 X56.075 Y87.754 E0.32152
G1 X56.005 Y87.684
G0 F1800 X56.075 Y88.319
G1 F600 X60.068 Y92.312 E0.28173
G1 X60.138 Y92.382
G0 F1800 X59.502 Y92.312
G1 F600 X56.074 Y88.884 E0.24186
G1 X56.004 Y88.814
G0 F1800 X56.074 Y89.45
G1 F600 X58.936 Y92.312 E0.20193
G1 X59.006 Y92.382
G0 F1800 X58.37 Y92.312
G1 F600 X56.074 Y90.016 E0.162
G1 X56.004 Y89.946
G0 F1800 X56.074 Y90.581
G1 F600 X57.805 Y92.312 E0.12213
G1 X57.875 Y92.382
G0 F1800 X57.24 Y92.312
G1 F600 X56.074 Y91.146 E0.08227
G1 X56.004 Y91.076
G0 F1800 X56.074 Y91.712
G1 F600 X56.674 Y92.312 E0.04233
G1 X56.744 Y92.382
G0 F1800 X69.449 Y76.987
G0 X69.449 Y76.687
;TIME_ELAPSED:85.484737
;LAYER:1
M106 S255
G0 F3600 X69.449 Y76.687 Z0.5
;TYPE:WALL-INNER
G1 F1600 X69.509 Y76.687 E0.002
G1 X69.574 Y76.701 E0.00221
G1 X69.606 Y76.719 E0.00122
G1 X69.655 Y76.766 E0.00226
G1 X69.682 Y76.811 E0.00175
G1 X69.699 Y76.894 E0.00282
G1 X69.699 Y76.954 E0.002
G1 X69.692 Y92.931 E0.5314
G1 X69.658 Y93.002 E0.00262
G1 X69.609 Y93.048 E0.00224
G1 X69.582 Y93.063 E0.00103
G1 X69.537 Y93.076 E0.00156
G1 X69.473 Y93.084 E0.00215
G1 X55.524 Y93.083 E0.46395
G1 X55.425 Y93.064 E0.00335
G1 X55.353 Y93.016 E0.00288
G1 X55.321 Y92.968 E0.00192
G1 X55.302 Y92.892 E0.00261
G1 X55.303 Y76.873 E0.53279
G1 X55.315 Y76.814 E0.002
G1 X55.335 Y76.778 E0.00137
G1 X55.382 Y76.729 E0.00226
G1 X55.427 Y76.702 E0.00175
G1 X55.481 Y76.687 E0.00186
G1 X69.449 Y76.687 E0.46458
G0 F3600 X69.539 Y76.287
;TYPE:WALL-OUTER
G1 F1000 X69.66 Y76.306 E0.00407
G1 X69.743 Y76.337 E0.00295
G1 X69.846 Y76.395 E0.00393
G1 X69.97 Y76.513 E0.00569
G1 X70.053 Y76.651 E0.00536
G1 X70.093 Y76.801 E0.00516
G1 X70.099 Y76.873 E0.0024
G1 X70.096 Y92.949 E0.53469
G1 X70.078 Y93.043 E0.00318
G1 X70.042 Y93.137 E0.00335
G1 X69.988 Y93.232 E0.00363
G1 X69.919 Y93.311 E0.00349
G1 X69.835 Y93.38 E0.00362
G1 X69.739 Y93.434 E0.00366
G1 X69.62 Y93.469 E0.00413
G1 X69.496 Y93.484 E0.00415
G1 X55.498 Y93.483 E0.46558
G1 X55.372 Y93.467 E0.00422
G1 X55.263 Y93.433 E0.0038
G1 X55.151 Y93.368 E0.00431
G1 X55.067 Y93.298 E0.00364
G1 X55.011 Y93.231 E0.0029
G1 X54.964 Y93.151 E0.00309
G1 X54.924 Y93.053 E0.00352
G1 X54.902 Y92.924 E0.00435
G1 X54.903 Y76.845 E0.53479
G1 X54.922 Y76.724 E0.00407
G1 X54.953 Y76.64 E0.00298
G1 X55.011 Y76.538 E0.0039
G1 X55.129 Y76.414 E0.00569
G1 X55.267 Y76.331 E0.00536
G1 X55.417 Y76.291 E0.00516
G1 X55.502 Y76.285 E0.00283
G1 X69.539 Y76.287 E0.46687
G0 F3600 X69.66 Y76.306
G0 X69.733 Y76.333
G0 X69.539 Y76.794
G0 X69.309 Y77.077
;TYPE:SKIN
G1 F1000 X69.302 Y92.694 E0.51942
G1 X55.692 Y92.693 E0.45267
G1 X55.693 Y77.077 E0.51939
G1 X69.309 Y77.077 E0.45287
G0 F3600 X55.873 Y77.628
G1 F1000 X56.245 Y77.256 E0.0175
G0 F3600 X56.811 Y77.256
G1 F1000 X55.873 Y78.193 E0.0441
G1 X55.803 Y78.263
G0 F3600 X55.873 Y78.759
G1 F1000 X57.376 Y77.256 E0.0707
G1 X57.446 Y77.186
G0 F3600 X57.942 Y77.256
G1 F1000 X55.873 Y79.325 E0.09732
G1 X55.803 Y79.395
G0 F3600 X55.873 Y79.891
G1 F1000 X58.508 Y77.256 E0.12394
G1 X58.578 Y77.186
G0 F3600 X59.073 Y77.256
G1 F1000 X55.873 Y80.456 E0.15052
G1 X55.803 Y80.526
G0 F3600 X55.873 Y81.022
G1 F1000 X59.639 Y77.256 E0.17714
G1 X59.709 Y77.186
G0 F3600 X60.205 Y77.256
G1 F1000 X55.873 Y81.588 E0.20376
G1 X55.803 Y81.658
G0 F3600 X55.873 Y82.153
G1 F1000 X60.77 Y77.256 E0.23034
G1 X60.84 Y77.186
G0 F3600 X61.336 Y77.256
G1 F1000 X55.873 Y82.719 E0.25696
G1 X55.803 Y82.789
G0 F3600 X55.873 Y83.285
G1 F1000 X61.902 Y77.256 E0.28359
G1 X61.972 Y77.186
G0 F3600 X62.467 Y77.256
G1 F1000 X55.873 Y83.85 E0.31016
G1 X55.803 Y83.92
G0 F3600 X55.873 Y84.416
G1 F1000 X63.033 Y77.256 E0.33678
G1 X63.103 Y77.186
G0 F3600 X63.599 Y77.256
G1 F1000 X55.872 Y84.982 E0.36343
G1 X55.802 Y85.052
G0 F3600 X55.872 Y85.548
G1 F1000 X64.164 Y77.256 E0.39003
G1 X64.234 Y77.186
G0 F3600 X64.73 Y77.256
G1 F1000 X55.872 Y86.114 E0.41665
G1 X55.802 Y86.184
G0 F3600 X55.872 Y86.679
G1 F1000 X65.296 Y77.256 E0.44325
G1 X65.366 Y77.186
G0 F3600 X65.862 Y77.256
G1 F1000 X55.872 Y87.245 E0.46988
G1 X55.802 Y87.315
G0 F3600 X55.872 Y87.811
G1 F1000 X66.427 Y77.256 E0.49647
G1 X66.497 Y77.186
G0 F3600 X66.993 Y77.256
G1 F1000 X55.872 Y88.377 E0.5231
G1 X55.802 Y88.447
G0 F3600 X55.872 Y88.942
G1 F1000 X67.559 Y77.256 E0.5497
G1 X67.629 Y77.186
G0 F3600 X68.124 Y77.256
G1 F1000 X55.872 Y89.508 E0.5763
G1 X55.802 Y89.578
G0 F3600 X55.872 Y90.074
G1 F1000 X68.69 Y77.256 E0.60292
G1 X68.76 Y77.186
G0 F3600 X69.128 Y77.384
G1 F1000 X55.872 Y90.639 E0.6235
G1 X55.802 Y90.709
G0 F3600 X55.872 Y91.205
G1 F1000 X69.128 Y77.95 E0.6235
G1 X69.198 Y77.88
G0 F3600 X69.128 Y78.515
G1 F1000 X55.872 Y91.771 E0.62352
G1 X55.802 Y91.841
G0 F3600 X55.872 Y92.336
G1 F1000 X69.127 Y79.082 E0.62345
G1 X69.197 Y79.012
G0 F3600 X69.127 Y79.647
G1 F1000 X56.262 Y92.512 E0.60513
G1 X56.192 Y92.582
G0 F3600 X56.828 Y92.512
G1 F1000 X69.127 Y80.213 E0.57851
G1 X69.197 Y80.143
G0 F3600 X69.126 Y80.779
G1 F1000 X57.393 Y92.512 E0.55188
G1 X57.323 Y92.582
G0 F3600 X57.959 Y92.512
G1 F1000 X69.126 Y81.345 E0.52526
G1 X69.196 Y81.275
G0 F3600 X69.126 Y81.911
G1 F1000 X58.525 Y92.512 E0.49864
G1 X58.455 Y92.582
G0 F3600 X59.09 Y92.512
G1 F1000 X69.126 Y82.477 E0.47204
G1 X69.196 Y82.407
G0 F3600 X69.126 Y83.043
G1 F1000 X59.656 Y92.512 E0.44542
G1 X59.586 Y92.582
G0 F3600 X60.222 Y92.512
G1 F1000 X69.125 Y83.609 E0.41877
G1 X69.195 Y83.539
G0 F3600 X69.125 Y84.175
G1 F1000 X60.787 Y92.512 E0.39217
G1 X60.717 Y92.582
G0 F3600 X61.353 Y92.512
G1 F1000 X69.125 Y84.741 E0.36555
G1 X69.195 Y84.671
G0 F3600 X69.124 Y85.307
G1 F1000 X61.919 Y92.512 E0.3389
G1 X61.849 Y92.582
G0 F3600 X62.484 Y92.512
G1 F1000 X69.124 Y85.873 E0.3123
G1 X69.194 Y85.803
G0 F3600 X69.123 Y86.439
G1 F1000 X63.05 Y92.512 E0.28566
G1 X62.98 Y92.582
G0 F3600 X63.616 Y92.512
G1 F1000 X69.123 Y87.005 E0.25903
G1 X69.193 Y86.935
G0 F3600 X69.123 Y87.57
G1 F1000 X64.181 Y92.512 E0.23246
G1 X64.111 Y92.582
G0 F3600 X64.747 Y92.512
G1 F1000 X69.123 Y88.137 E0.20581
G1 X69.193 Y88.067
G0 F3600 X69.123 Y88.703
G1 F1000 X65.313 Y92.512 E0.17919
G1 X65.243 Y92.582
G0 F3600 X65.879 Y92.512
G1 F1000 X69.123 Y89.268 E0.15259
G1 X69.193 Y89.198
G0 F3600 X69.122 Y89.835
G1 F1000 X66.444 Y92.512 E0.12594
G1 X66.374 Y92.582
G0 F3600 X67.01 Y92.512
G1 F1000 X69.122 Y90.4 E0.09934
G1 X69.192 Y90.33
G0 F3600 X69.122 Y90.966
G1 F1000 X67.576 Y92.512 E0.07272
G1 X67.506 Y92.582
G0 F3600 X68.141 Y92.512
G1 F1000 X69.121 Y91.532 E0.0461
G1 X69.191 Y91.462
G0 F3600 X69.121 Y92.098
G1 F1000 X68.707 Y92.512 E0.01947
G0 F3600 X69.499 Y76.786
G0 X69.524 Y76.57
;TIME_ELAPSED:127.339742
;LAYER:2
G0 F5400 X69.524 Y76.57 Z0.7
;TYPE:WALL-INNER
G1 F2600 X69.591 Y76.582 E0.00226
