;FLAVOR:Marlin
;TIME:1733
;Filament used: 1.40333m
;Layer height: 0.2
;POSTPROCESSED
;Generated with Cura_SteamEngine 3.6.0
M104 S190
M105
M109 S190
M82 ;absolute extrusion mode

M83 ;relative extrusion mode
G1 F2400 E-1
;LAYER_COUNT:20
;LAYER:0
M107
G0 F300 X49.708 Y42.869 Z0.3
;TYPE:SKIRT
G1 F2400 E1
G1 F1200 X50.073 Y42.476 E0.02676
G1 X50.492 Y42.141 E0.02676
G1 X50.955 Y41.872 E0.02671
G1 X51.454 Y41.675 E0.02677
G1 X51.977 Y41.554 E0.02678
G1 X52.524 Y41.512 E0.02737
G1 X74.452 Y41.512 E1.09399
G1 X74.987 Y41.552 E0.02677
G1 X75.51 Y41.671 E0.02676
G1 X76.009 Y41.866 E0.02673
G1 X76.474 Y42.134 E0.02678
G1 X76.894 Y42.467 E0.02674
G1 X77.26 Y42.859 E0.02676
G1 X77.57 Y43.312 E0.02739
G1 X88.534 Y62.299 E1.09385
G1 X88.766 Y62.782 E0.02673
G1 X88.925 Y63.294 E0.02675
G1 X89.006 Y63.824 E0.02675
G1 X89.006 Y64.361 E0.02679
G1 X88.928 Y64.891 E0.02673
G1 X88.771 Y65.404 E0.02677
G1 X88.534 Y65.899 E0.02738
G1 X77.571 Y84.892 E1.09409
G1 X77.269 Y85.335 E0.02675
G1 X76.904 Y85.728 E0.02676
G1 X76.486 Y86.063 E0.02672
G1 X76.022 Y86.332 E0.02676
G1 X75.523 Y86.529 E0.02677
G1 X75 Y86.65 E0.02678
G1 X74.453 Y86.692 E0.02737
G1 X52.525 Y86.692 E1.09399
G1 X51.99 Y86.652 E0.02677
G1 X51.467 Y86.533 E0.02676
G1 X50.968 Y86.338 E0.02673
G1 X50.503 Y86.07 E0.02678
G1 X50.083 Y85.737 E0.02674
G1 X49.717 Y85.345 E0.02676
G1 X49.407 Y84.892 E0.02739
G1 X38.445 Y65.899 E1.09406
G1 X38.212 Y65.415 E0.0268
G1 X38.054 Y64.903 E0.02673
G1 X37.973 Y64.373 E0.02675
G1 X37.973 Y63.837 E0.02674
G1 X38.051 Y63.306 E0.02678
G1 X38.208 Y62.793 E0.02677
G1 X38.445 Y62.299 E0.02734
G1 X49.406 Y43.312 E1.09378
G1 X49.708 Y42.869 E0.02675
G0 F300 X50.039 Y43.096
G1 F1200 X50.388 Y42.729 E0.02527
G1 X50.79 Y42.423 E0.02521
G1 X51.235 Y42.183 E0.02522
G1 X51.712 Y42.017 E0.0252
G1 X52.21 Y41.927 E0.02525
G1 X52.524 Y41.912 E0.01568
G1 X74.452 Y41.912 E1.09399
G1 X74.956 Y41.952 E0.02522
G1 X75.447 Y42.071 E0.02521
G1 X75.914 Y42.265 E0.02523
G1 X76.344 Y42.531 E0.02523
G1 X76.727 Y42.861 E0.02522
G1 X77.053 Y43.248 E0.02524
G1 X77.223 Y43.512 E0.01567
G1 X88.187 Y62.499 E1.09385
G1 X88.405 Y62.955 E0.02522
G1 X88.547 Y63.44 E0.02521
G1 X88.612 Y63.942 E0.02525
G1 X88.597 Y64.447 E0.02521
G1 X88.503 Y64.944 E0.02524
G1 X88.331 Y65.419 E0.0252
G1 X88.187 Y65.699 E0.01571
G1 X77.224 Y84.692 E1.09409
G1 X76.938 Y85.108 E0.02519
G1 X76.589 Y85.474 E0.02523
G1 X76.187 Y85.781 E0.02524
G1 X75.742 Y86.021 E0.02522
G1 X75.265 Y86.187 E0.0252
G1 X74.767 Y86.277 E0.02525
G1 X74.453 Y86.292 E0.01568
G1 X52.525 Y86.292 E1.09399
G1 X52.021 Y86.252 E0.02522
G1 X51.53 Y86.133 E0.02521
G1 X51.063 Y85.939 E0.02523
G1 X50.633 Y85.673 E0.02523
G1 X50.25 Y85.343 E0.02522
G1 X49.924 Y84.956 E0.02524
G1 X49.753 Y84.692 E0.01569
G1 X38.791 Y65.699 E1.09406
G1 X38.574 Y65.242 E0.02524
G1 X38.431 Y64.757 E0.02523
G1 X38.367 Y64.256 E0.0252
G1 X38.382 Y63.75 E0.02526
G1 X38.477 Y63.254 E0.0252
G1 X38.648 Y62.778 E0.02523
G1 X38.792 Y62.499 E0.01566
G1 X49.753 Y43.512 E1.09378
G1 X50.039 Y43.096 E0.02519
G1 F2400 E-1
;MESH:WhiteHalf.stl
G0 F300 X51.441 Y44.891
G0 X52.875 Y45.719
G0 X84.636 Y64.102
G0 X84.736 Y64.102
;TYPE:WALL-INNER
G1 F2400 E1
G1 F600 X74.112 Y82.502 E1.06001
G1 X52.865 Y82.502 E1.06002
G1 X42.241 Y64.102 E1.06001
G1 X52.865 Y45.702 E1.06001
G1 X74.112 Y45.702 E1.06002
G1 X84.736 Y64.102 E1.06001
G0 F300 X85.197 Y64.102
;TYPE:WALL-OUTER
G1 F600 X74.343 Y82.902 E1.08303
G1 X52.634 Y82.902 E1.08307
G1 X41.78 Y64.102 E1.08303
G1 X52.634 Y45.302 E1.08303
G1 X74.343 Y45.302 E1.08307
G1 X85.197 Y64.102 E1.08303
G0 F300 X85.097 Y64.275
G0 X84.636 Y64.102
G0 X84.285 Y64.102
;TYPE:SKIN
G1 F600 X73.887 Y82.112 E1.03752
G1 X53.09 Y82.112 E1.03757
G1 X42.692 Y64.102 E1.03752
G1 X53.09 Y46.092 E1.03752
G1 X73.887 Y46.092 E1.03757
G1 X84.285 Y64.102 E1.03752
G0 F300 X73.425 Y46.272
G1 F600 X74.272 Y47.119 E0.05976
G1 X74.342 Y47.189
G0 F300 X75.044 Y48.457
G1 F600 X72.859 Y46.272 E0.15416
G0 F300 X72.293 Y46.272
G1 F600 X75.817 Y49.795 E0.2486
G1 X75.887 Y49.865
G0 F300 X76.59 Y51.134
G1 F600 X71.728 Y46.272 E0.34304
G0 F300 X71.162 Y46.272
G1 F600 X77.362 Y52.472 E0.43744
G1 X77.432 Y52.542
G0 F300 X78.135 Y53.81
G1 F600 X70.596 Y46.272 E0.53188
G0 F300 X70.031 Y46.272
G1 F600 X78.908 Y55.149 E0.62632
G1 X78.978 Y55.219
G0 F300 X79.68 Y56.487
G1 F600 X69.465 Y46.272 E0.72072
G0 F300 X68.899 Y46.272
G1 F600 X80.453 Y57.825 E0.81516
G1 X80.523 Y57.895
G0 F300 X81.226 Y59.164
G1 F600 X68.334 Y46.272 E0.9096
G0 F300 X67.768 Y46.272
G1 F600 X81.998 Y60.502 E1.004
G1 X82.068 Y60.572
G0 F300 X82.771 Y61.84
G1 F600 X67.202 Y46.272 E1.09844
G0 F300 X66.637 Y46.272
G1 F600 X83.543 Y63.179 E1.19284
G1 X83.613 Y63.249
G0 F300 X84.012 Y64.213
G1 F600 X66.071 Y46.272 E1.26583
G0 F300 X65.505 Y46.272
G1 F600 X83.805 Y64.572 E1.29116
G0 F300 X83.598 Y64.93
G1 F600 X64.939 Y46.272 E1.31646
G0 F300 X64.374 Y46.272
G1 F600 X83.391 Y65.289 E1.34175
G0 F300 X83.184 Y65.648
G1 F600 X63.808 Y46.272 E1.36708
G0 F300 X63.242 Y46.272
G1 F600 X82.977 Y66.007 E1.39241
G0 F300 X82.77 Y66.365
G1 F600 X62.677 Y46.272 E1.41767
G0 F300 X62.111 Y46.272
G1 F600 X82.563 Y66.724 E1.443
G0 F300 X82.356 Y67.082
G1 F600 X61.545 Y46.272 E1.46829
G0 F300 X60.98 Y46.272
G1 F600 X82.148 Y67.441 E1.49355
G0 F300 X81.942 Y67.8
G1 F600 X60.414 Y46.272 E1.51892
G0 F300 X59.848 Y46.272
G1 F600 X81.735 Y68.158 E1.54421
G0 F300 X81.527 Y68.517
G1 F600 X59.283 Y46.272 E1.56947
G0 F300 X58.717 Y46.272
G1 F600 X81.32 Y68.875 E1.59476
G0 F300 X81.113 Y69.234
G1 F600 X58.151 Y46.272 E1.62009
G0 F300 X57.586 Y46.272
G1 F600 X80.907 Y69.593 E1.64542
G0 F300 X80.699 Y69.951
G1 F600 X57.02 Y46.272 E1.67068
G0 F300 X56.454 Y46.272
G1 F600 X80.492 Y70.31 E1.69601
G0 F300 X80.285 Y70.668
G1 F600 X55.889 Y46.272 E1.72127
G0 F300 X55.323 Y46.272
G1 F600 X80.078 Y71.027 E1.7466
G0 F300 X79.871 Y71.386
G1 F600 X54.757 Y46.272 E1.77193
G0 F300 X54.191 Y46.272
G1 F600 X79.664 Y71.745 E1.79726
G0 F300 X79.457 Y72.103
G1 F600 X53.626 Y46.272 E1.82252
G0 F300 X53.143 Y46.355
G1 F600 X79.25 Y72.462 E1.84199
G0 F300 X79.043 Y72.82
G1 F600 X52.936 Y46.714 E1.84195
G0 F300 X52.729 Y47.072
G1 F600 X78.836 Y73.179 E1.84199
G0 F300 X78.629 Y73.538
G1 F600 X52.522 Y47.431 E1.84199
G0 F300 X52.315 Y47.789
G1 F600 X78.422 Y73.896 E1.84199
G0 F300 X78.215 Y74.255
G1 F600 X52.108 Y48.148 E1.84199
G0 F300 X51.901 Y48.507
G1 F600 X78.008 Y74.613 E1.84195
G0 F300 X77.801 Y74.973
G1 F600 X51.694 Y48.866 E1.84199
G0 F300 X51.487 Y49.224
G1 F600 X77.594 Y75.331 E1.84199
G0 F300 X77.387 Y75.69
G1 F600 X51.28 Y49.583 E1.84199
G0 F300 X51.072 Y49.941
G1 F600 X77.179 Y76.048 E1.84199
G0 F300 X76.972 Y76.407
G1 F600 X50.866 Y50.3 E1.84195
G0 F300 X50.659 Y50.659
G1 F600 X76.766 Y76.766 E1.84199
G0 F300 X76.559 Y77.124
G1 F600 X50.452 Y51.017 E1.84199
G0 F300 X50.244 Y51.376
G1 F600 X76.351 Y77.483 E1.84199
G0 F300 X76.144 Y77.841
G1 F600 X50.037 Y51.734 E1.84199
G0 F300 X49.831 Y52.093
G1 F600 X75.937 Y78.2 E1.84195
G0 F300 X75.731 Y78.559
G1 F600 X49.624 Y52.452 E1.84199
G0 F300 X49.416 Y52.81
G1 F600 X75.523 Y78.918 E1.84203
G0 F300 X75.316 Y79.276
G1 F600 X49.209 Y53.169 E1.84199
G0 F300 X49.002 Y53.527
G1 F600 X75.109 Y79.635 E1.84203
G0 F300 X74.902 Y79.993
G1 F600 X48.796 Y53.887 E1.84192
G0 F300 X48.588 Y54.245
G1 F600 X74.695 Y80.352 E1.84199
G0 F300 X74.488 Y80.711
G1 F600 X48.381 Y54.604 E1.84199
G0 F300 X48.174 Y54.962
G1 F600 X74.281 Y81.069 E1.84199
G0 F300 X74.074 Y81.428
G1 F600 X47.967 Y55.321 E1.84199
G0 F300 X47.76 Y55.68
G1 F600 X73.867 Y81.786 E1.84195
G0 F300 X73.445 Y81.931
G1 F600 X47.553 Y56.038 E1.82686
G0 F300 X47.346 Y56.397
G1 F600 X72.88 Y81.931 E1.80156
G0 F300 X72.314 Y81.931
G1 F600 X47.139 Y56.755 E1.77627
G0 F300 X46.932 Y57.114
G1 F600 X71.748 Y81.931 E1.75094
G0 F300 X71.183 Y81.931
G1 F600 X46.725 Y57.473 E1.72564
G0 F300 X46.518 Y57.832
G1 F600 X70.617 Y81.931 E1.70031
G0 F300 X70.051 Y81.931
G1 F600 X46.311 Y58.19 E1.67502
G0 F300 X46.104 Y58.549
G1 F600 X69.485 Y81.931 E1.64969
G0 F300 X68.92 Y81.931
G1 F600 X45.896 Y58.907 E1.62447
G0 F300 X45.689 Y59.266
G1 F600 X68.354 Y81.931 E1.59914
G0 F300 X67.788 Y81.931
G1 F600 X45.483 Y59.625 E1.57377
G0 F300 X45.276 Y59.983
G1 F600 X67.223 Y81.931 E1.54851
G0 F300 X66.657 Y81.931
G1 F600 X45.068 Y60.342 E1.52322
G0 F300 X44.861 Y60.7
G1 F600 X66.091 Y81.931 E1.49793
G0 F300 X65.526 Y81.931
G1 F600 X44.654 Y61.059 E1.47263
G0 F300 X44.448 Y61.418
G1 F600 X64.96 Y81.931 E1.44727
G0 F300 X64.394 Y81.931
G1 F600 X44.24 Y61.777 E1.42197
G0 F300 X44.033 Y62.135
G1 F600 X63.829 Y81.931 E1.39671
G0 F300 X63.263 Y81.931
G1 F600 X43.826 Y62.494 E1.37139
G0 F300 X43.619 Y62.852
G1 F600 X62.697 Y81.931 E1.34609
G0 F300 X62.132 Y81.931
G1 F600 X43.412 Y63.211 E1.3208
G0 F300 X43.205 Y63.57
G1 F600 X61.566 Y81.931 E1.29547
G0 F300 X61 Y81.931
G1 F600 X42.998 Y63.928 E1.27017
G1 X42.928 Y63.858
G0 F300 X43.301 Y64.797
G1 F600 X60.435 Y81.931 E1.2089
G0 F300 X59.869 Y81.931
G1 F600 X44.073 Y66.134 E1.11453
G1 X44.003 Y66.064
G0 F300 X44.846 Y67.473
G1 F600 X59.303 Y81.931 E1.02005
G0 F300 X58.737 Y81.931
G1 F600 X45.618 Y68.812 E0.92562
G1 X45.548 Y68.742
G0 F300 X46.391 Y70.149
G1 F600 X58.172 Y81.931 E0.83125
G0 F300 X57.606 Y81.931
G1 F600 X47.164 Y71.488 E0.73677
G1 X47.094 Y71.418
G0 F300 X47.936 Y72.827
G1 F600 X57.04 Y81.931 E0.64234
G0 F300 X56.475 Y81.931
G1 F600 X48.709 Y74.164 E0.54797
G1 X48.639 Y74.094
G0 F300 X49.481 Y75.503
G1 F600 X55.909 Y81.931 E0.45353
G0 F300 X55.343 Y81.931
G1 F600 X50.254 Y76.842 E0.35906
G1 X50.184 Y76.772
G0 F300 X51.026 Y78.179
G1 F600 X54.778 Y81.931 E0.26472
G0 F300 X54.212 Y81.931
G1 F600 X51.799 Y79.518 E0.17025
G1 X51.729 Y79.448
G0 F300 X52.572 Y80.856
G1 F600 X53.646 Y81.931 E0.07581
G1 X53.716 Y82.001
;MESH:NONMESH
G0 F300 X84.636 Y64.102
G0 X84.736 Y64.102
;TIME_ELAPSED:378.951029
;LAYER:1
M106 S255
;MESH:WhiteHalf.stl
G0 F800 X84.736 Y64.102 Z0.5
;TYPE:WALL-INNER
G1 F1600 X74.112 Y82.502 E0.70667
G1 X52.865 Y82.502 E0.70668
G1 X42.241 Y64.102 E0.70667
G1 X52.865 Y45.702 E0.70667
G1 X74.112 Y45.702 E0.70668
G1 X84.736 Y64.102 E0.70667
G0 F800 X85.197 Y64.102
;TYPE:WALL-OUTER
G1 F1000 X74.343 Y82.902 E0.72202
G1 X52.634 Y82.902 E0.72204
G1 X41.78 Y64.102 E0.72202
G1 X52.634 Y45.302 E0.72202
G1 X74.343 Y45.302 E0.72204
G1 X85.197 Y64.102 E0.72202
G0 F800 X85.097 Y64.275
G0 X84.636 Y64.102
G0 X84.285 Y64.102
;TYPE:SKIN
G1 F1000 X73.887 Y82.112 E0.69168
G1 X53.09 Y82.112 E0.69171
G1 X42.692 Y64.102 E0.69168
G1 X53.09 Y46.092 E0.69168
G1 X73.887 Y46.092 E0.69171
G1 X84.285 Y64.102 E0.69168
G0 F800 X73.632 Y81.931
G1 F1000 X73.99 Y81.573 E0.01684
G0 F800 X73.066 Y81.931
G1 F1000 X74.762 Y80.235 E0.07977
G1 X74.832 Y80.165
G0 F800 X75.535 Y78.896
G1 F1000 X72.501 Y81.931 E0.14273
G0 F800 X71.935 Y81.931
G1 F1000 X76.308 Y77.558 E0.20569
G1 X76.378 Y77.488
G0 F800 X77.08 Y76.22
G1 F1000 X71.369 Y81.931 E0.26863
G0 F800 X70.804 Y81.931
G1 F1000 X77.853 Y74.881 E0.33159
G1 X77.923 Y74.811
G0 F800 X78.625 Y73.544
G1 F1000 X70.238 Y81.931 E0.3945
G0 F800 X69.672 Y81.931
G1 F1000 X79.398 Y72.205 E0.45748
G1 X79.468 Y72.135
G0 F800 X80.17 Y70.867
G1 F1000 X69.106 Y81.931 E0.52042
G0 F800 X68.541 Y81.931
G1 F1000 X80.943 Y69.529 E0.58335
G1 X81.013 Y69.459
G0 F800 X81.716 Y68.19
G1 F1000 X67.975 Y81.931 E0.64633
G0 F800 X67.409 Y81.931
G1 F1000 X82.488 Y66.852 E0.70927
G1 X82.558 Y66.782
G0 F800 X83.261 Y65.514
G1 F1000 X66.844 Y81.931 E0.77221
G0 F800 X66.278 Y81.931
G1 F1000 X84.033 Y64.176 E0.83514
G0 F800 X83.88 Y63.763
G1 F1000 X65.712 Y81.931 E0.85457
G0 F800 X65.147 Y81.931
G1 F1000 X83.673 Y63.404 E0.87143
G0 F800 X83.466 Y63.046
G1 F1000 X64.581 Y81.931 E0.88829
G0 F800 X64.015 Y81.931
G1 F1000 X83.258 Y62.687 E0.90516
G0 F800 X83.052 Y62.328
G1 F1000 X63.45 Y81.931 E0.92204
G0 F800 X62.884 Y81.931
G1 F1000 X82.845 Y61.97 E0.9389
G0 F800 X82.638 Y61.611
G1 F1000 X62.318 Y81.931 E0.95579
G0 F800 X61.753 Y81.931
G1 F1000 X82.43 Y61.253 E0.97261
G0 F800 X82.223 Y60.894
G1 F1000 X61.187 Y81.931 E0.98949
G0 F800 X60.621 Y81.931
G1 F1000 X82.017 Y60.535 E1.0064
G0 F800 X81.81 Y60.176
G1 F1000 X60.055 Y81.931 E1.02329
G0 F800 X59.49 Y81.931
G1 F1000 X81.602 Y59.818 E1.0401
G0 F800 X81.395 Y59.459
G1 F1000 X58.924 Y81.931 E1.05699
G0 F800 X58.358 Y81.931
G1 F1000 X81.188 Y59.101 E1.07385
G0 F800 X80.981 Y58.742
G1 F1000 X57.793 Y81.931 E1.09072
G0 F800 X57.227 Y81.931
G1 F1000 X80.774 Y58.383 E1.1076
G0 F800 X80.567 Y58.025
G1 F1000 X56.661 Y81.931 E1.12446
G0 F800 X56.096 Y81.931
G1 F1000 X80.36 Y57.666 E1.14133
G0 F800 X80.153 Y57.308
G1 F1000 X55.53 Y81.931 E1.15819
G0 F800 X54.964 Y81.931
G1 F1000 X79.946 Y56.949 E1.17508
G0 F800 X79.739 Y56.59
G1 F1000 X54.399 Y81.931 E1.19194
G0 F800 X53.833 Y81.931
G1 F1000 X79.532 Y56.231 E1.20883
G0 F800 X79.325 Y55.873
G1 F1000 X53.267 Y81.931 E1.22569
G0 F800 X53.013 Y81.619
G1 F1000 X79.118 Y55.514 E1.2279
G0 F800 X78.91 Y55.156
G1 F1000 X52.806 Y81.26 E1.22785
G0 F800 X52.599 Y80.902
G1 F1000 X78.704 Y54.797 E1.2279
G0 F800 X78.497 Y54.438
G1 F1000 X52.392 Y80.543 E1.2279
G0 F800 X52.185 Y80.185
G1 F1000 X78.29 Y54.08 E1.2279
G0 F800 X78.082 Y53.721
G1 F1000 X51.978 Y79.826 E1.22788
G0 F800 X51.771 Y79.467
G1 F1000 X77.875 Y53.363 E1.22785
G0 F800 X77.669 Y53.004
G1 F1000 X51.564 Y79.108 E1.22788
G0 F800 X51.357 Y78.75
G1 F1000 X77.462 Y52.645 E1.2279
G0 F800 X77.254 Y52.287
G1 F1000 X51.149 Y78.391 E1.22788
G0 F800 X50.942 Y78.033
G1 F1000 X77.047 Y51.928 E1.2279
G0 F800 X76.84 Y51.57
G1 F1000 X50.736 Y77.674 E1.22785
G0 F800 X50.529 Y77.315
G1 F1000 X76.633 Y51.211 E1.22785
G0 F800 X76.426 Y50.852
G1 F1000 X50.321 Y76.957 E1.2279
G0 F800 X50.114 Y76.598
G1 F1000 X76.219 Y50.493 E1.2279
G0 F800 X76.012 Y50.135
G1 F1000 X49.907 Y76.24 E1.2279
G0 F800 X49.701 Y75.881
G1 F1000 X75.805 Y49.776 E1.22788
G0 F800 X75.598 Y49.418
G1 F1000 X49.493 Y75.522 E1.22788
G0 F800 X49.286 Y75.164
G1 F1000 X75.391 Y49.059 E1.2279
G0 F800 X75.184 Y48.7
G1 F1000 X49.079 Y74.805 E1.2279
G0 F800 X48.872 Y74.447
G1 F1000 X74.977 Y48.342 E1.2279
G0 F800 X74.77 Y47.983
G1 F1000 X48.665 Y74.088 E1.2279
G0 F800 X48.458 Y73.729
G1 F1000 X74.562 Y47.625 E1.22785
G0 F800 X74.356 Y47.265
G1 F1000 X48.251 Y73.37 E1.2279
G0 F800 X48.044 Y73.012
G1 F1000 X74.149 Y46.907 E1.2279
G0 F800 X73.942 Y46.548
G1 F1000 X47.837 Y72.653 E1.2279
G0 F800 X47.63 Y72.295
G1 F1000 X73.652 Y46.272 E1.22402
G0 F800 X73.087 Y46.272
G1 F1000 X47.423 Y71.936 E1.20716
G0 F800 X47.216 Y71.577
G1 F1000 X72.521 Y46.272 E1.19027
G0 F800 X71.955 Y46.272
G1 F1000 X47.009 Y71.219 E1.17341
G0 F800 X46.801 Y70.86
G1 F1000 X71.39 Y46.272 E1.15657
G0 F800 X70.824 Y46.272
G1 F1000 X46.594 Y70.502 E1.1397
G0 F800 X46.388 Y70.142
G1 F1000 X70.258 Y46.272 E1.12277
G0 F800 X69.693 Y46.272
G1 F1000 X46.181 Y69.784 E1.10593
G0 F800 X45.973 Y69.425
G1 F1000 X69.127 Y46.272 E1.08907
G0 F800 X68.561 Y46.272
G1 F1000 X45.766 Y69.067 E1.07221
G0 F800 X45.559 Y68.708
G1 F1000 X67.996 Y46.272 E1.05534
G0 F800 X67.43 Y46.272
G1 F1000 X45.353 Y68.349 E1.03843
G0 F800 X45.145 Y67.991
G1 F1000 X66.864 Y46.272 E1.0216
G0 F800 X66.299 Y46.272
G1 F1000 X44.938 Y67.632 E1.00473
G0 F800 X44.731 Y67.274
G1 F1000 X65.733 Y46.272 E0.98787
G0 F800 X65.167 Y46.272
G1 F1000 X44.524 Y66.915 E0.97098
G0 F800 X44.317 Y66.556
G1 F1000 X64.601 Y46.272 E0.9541
G0 F800 X64.036 Y46.272
G1 F1000 X44.11 Y66.197 E0.93723
G0 F800 X43.903 Y65.839
G1 F1000 X63.47 Y46.272 E0.92037
G0 F800 X62.904 Y46.272
G1 F1000 X43.696 Y65.48 E0.90349
G0 F800 X43.489 Y65.122
G1 F1000 X62.339 Y46.272 E0.88665
G0 F800 X61.773 Y46.272
G1 F1000 X43.282 Y64.763 E0.86976
G0 F800 X43.075 Y64.404
G1 F1000 X61.207 Y46.272 E0.85287
G0 F800 X60.642 Y46.272
G1 F1000 X43.017 Y63.896 E0.829
G1 X42.947 Y63.966
G0 F800 X43.79 Y62.558
G1 F1000 X60.076 Y46.272 E0.76604
G0 F800 X59.51 Y46.272
G1 F1000 X44.562 Y61.22 E0.70311
G1 X44.492 Y61.29
G0 F800 X45.335 Y59.882
G1 F1000 X58.945 Y46.272 E0.64017
G0 F800 X58.379 Y46.272
G1 F1000 X46.107 Y58.544 E0.57724
G1 X46.037 Y58.614
G0 F800 X46.88 Y57.205
G1 F1000 X57.813 Y46.272 E0.51425
G0 F800 X57.248 Y46.272
G1 F1000 X47.653 Y55.867 E0.45132
G1 X47.583 Y55.937
