;FLAVOR:Marlin
;TIME:143
;Filament used: 0.0782936m
;Layer height: 0.2
;POSTPROCESSED
;Generated with Cura_SteamEngine 3.6.0
M104 S190
M105
M109 S190
M83 ;relative extrusion mode
G1 F2400 E-1
;LAYER_COUNT:8
;LAYER:0
M107
;MESH:BlueSpot.stl
G0 F300 X47.407 Y55.569 Z5.0
G0 F300 X47.407 Y55.569 Z2.7
;TYPE:WALL-INNER
G1 F2400 E1
G1 F600 X47.65 Y55.734 E0.00977
G1 X48.069 Y56.057 E0.0176
G1 X48.478 Y56.407 E0.0179
G1 X48.842 Y56.751 E0.01666
G1 X49.192 Y57.117 E0.01684
G1 X49.544 Y57.524 E0.0179
G1 X49.864 Y57.933 E0.01727
G1 X50.157 Y58.349 E0.01692
G1 X50.44 Y58.797 E0.01762
G1 X50.69 Y59.239 E0.01689
G1 X50.926 Y59.712 E0.01758
G1 X51.126 Y60.168 E0.01656
G1 X51.311 Y60.653 E0.01726
G1 X51.477 Y61.165 E0.0179
G1 X51.61 Y61.657 E0.01695
G1 X51.718 Y62.153 E0.01688
G1 X51.802 Y62.663 E0.01719
G1 X51.862 Y63.2 E0.01797
G1 X51.895 Y63.709 E0.01696
G1 X51.902 Y64.216 E0.01686
G1 X51.881 Y64.765 E0.01827
G1 X51.839 Y65.253 E0.01629
G1 X51.768 Y65.767 E0.01726
G1 X51.667 Y66.303 E0.01814
G1 X51.55 Y66.781 E0.01637
G1 X51.398 Y67.298 E0.01792
G1 X51.229 Y67.779 E0.01696
G1 X51.037 Y68.248 E0.01686
G1 X50.814 Y68.727 E0.01757
G1 X50.692 Y68.966 E0.00892
G1 X50.446 Y69.403 E0.01668
G1 X50.16 Y69.856 E0.01782
G1 X49.864 Y70.277 E0.01712
G1 X49.545 Y70.684 E0.0172
G1 X49.193 Y71.091 E0.0179
G1 X48.856 Y71.444 E0.01623
G1 X48.466 Y71.812 E0.01783
G1 X48.07 Y72.151 E0.01734
G1 X47.675 Y72.456 E0.0166
G1 X47.41 Y72.64 E0.01073
G1 X47.409 Y72.641 E0.00005
G1 X47.232 Y72.764 E0.00717
G1 X47.124 Y72.577 E0.00453
G1 X42.232 Y64.104 E0.32541
G1 X47.122 Y55.634 E0.32529
G1 X47.229 Y55.448 E0.00714
G1 X47.406 Y55.568 E0.0045
G1 X47.407 Y55.569 E0.00005
G0 F300 X47.333 Y55.038
;TYPE:WALL-OUTER
G1 F600 X47.684 Y55.269 E0.01398
G1 X47.894 Y55.417 E0.00854
G1 X48.321 Y55.746 E0.01793
G1 X48.738 Y56.103 E0.01826
G1 X49.123 Y56.466 E0.0176
G1 X49.495 Y56.855 E0.0179
G1 X49.847 Y57.262 E0.0179
G1 X50.179 Y57.686 E0.01791
G1 X50.495 Y58.135 E0.01826
G1 X50.778 Y58.583 E0.01762
G1 X51.048 Y59.06 E0.01823
G1 X51.284 Y59.533 E0.01758
G1 X51.5 Y60.026 E0.0179
G1 X51.692 Y60.53 E0.01794
G1 X51.858 Y61.042 E0.0179
G1 X52.001 Y61.572 E0.01826
G1 X52.113 Y62.088 E0.01756
G1 X52.2 Y62.619 E0.0179
G1 X52.26 Y63.156 E0.01797
G1 X52.295 Y63.704 E0.01826
G1 X52.302 Y64.231 E0.01753
G1 X52.281 Y64.78 E0.01827
G1 X52.235 Y65.308 E0.01763
G1 X52.161 Y65.841 E0.0179
G1 X52.06 Y66.38 E0.01824
G1 X51.934 Y66.894 E0.0176
G1 X51.782 Y67.411 E0.01792
G1 X51.604 Y67.918 E0.01787
G1 X51.4 Y68.417 E0.01793
G1 X51.171 Y68.908 E0.01802
G1 X51.049 Y69.148 E0.00895
G1 X50.784 Y69.617 E0.01792
G1 X50.496 Y70.073 E0.01794
G1 X50.186 Y70.514 E0.01793
G1 X49.848 Y70.946 E0.01824
G1 X49.496 Y71.353 E0.0179
G1 X49.131 Y71.735 E0.01757
G1 X48.739 Y72.105 E0.01793
G1 X48.322 Y72.462 E0.01826
G1 X47.903 Y72.785 E0.0176
G1 X47.461 Y73.092 E0.0179
G1 X47.267 Y73.212 E0.00759
G1 X47.092 Y73.32 E0.00684
G1 X46.989 Y73.142 E0.00439
G1 X41.771 Y64.104 E0.34711
G1 X47.028 Y54.997 E0.34974
G1 X47.092 Y54.887 E0.00423
G1 X47.227 Y54.968 E0.00524
G1 X47.333 Y55.038 E0.0033
G0 F300 X47.5 Y55.148
G0 X47.219 Y55.561
G0 X47.358 Y56.006
;TYPE:SKIN
G1 F600 X47.815 Y56.353 E0.01909
G1 X48.217 Y56.697 E0.0176
G1 X48.566 Y57.027 E0.01598
G1 X48.903 Y57.379 E0.01621
G1 X49.236 Y57.764 E0.01693
G1 X49.55 Y58.165 E0.01694
G1 X49.832 Y58.565 E0.01628
G1 X50.106 Y58.998 E0.01704
G1 X50.341 Y59.413 E0.01586
G1 X50.573 Y59.877 E0.01725
G1 X50.765 Y60.315 E0.01591
G1 X50.94 Y60.774 E0.01634
G1 X51.103 Y61.276 E0.01755
G1 X51.229 Y61.74 E0.01599
G1 X51.335 Y62.226 E0.01654
G1 X51.414 Y62.706 E0.01618
G1 X51.472 Y63.225 E0.01737
G1 X51.505 Y63.734 E0.01696
G1 X51.512 Y64.201 E0.01553
G1 X51.491 Y64.75 E0.01827
G1 X51.453 Y65.2 E0.01502
G1 X51.384 Y65.695 E0.01662
G1 X51.285 Y66.221 E0.0178
G1 X51.173 Y66.68 E0.01571
G1 X51.03 Y67.169 E0.01695
G1 X50.868 Y67.631 E0.01628
G1 X50.676 Y68.1 E0.01686
G1 X50.467 Y68.55 E0.0165
G1 X50.352 Y68.775 E0.0084
G1 X50.116 Y69.195 E0.01602
G1 X49.835 Y69.64 E0.0175
G1 X49.55 Y70.045 E0.01647
G1 X49.245 Y70.435 E0.01647
G1 X48.904 Y70.829 E0.01733
G1 X48.581 Y71.168 E0.01557
G1 X48.212 Y71.516 E0.01687
G1 X47.816 Y71.855 E0.01734
G1 X47.453 Y72.136 E0.01527
G1 X47.358 Y72.202 E0.00385
G1 X42.683 Y64.104 E0.311
G1 X47.358 Y56.006 E0.311
G0 F300 X47.341 Y56.392
G1 F600 X49.802 Y58.853 E0.11576
G1 X49.872 Y58.923
G0 F300 X50.467 Y60.084
G1 F600 X47.134 Y56.75 E0.1568
G0 F300 X46.927 Y57.109
G1 F600 X50.828 Y61.011 E0.18351
G1 X50.898 Y61.081
G0 F300 X51.06 Y61.808
G1 F600 X46.72 Y57.468 E0.20414
G0 F300 X46.513 Y57.827
G1 F600 X51.2 Y62.514 E0.22046
G0 F300 X51.284 Y63.163
G1 F600 X46.306 Y58.185 E0.23415
G0 F300 X46.099 Y58.544
G1 F600 X51.326 Y63.771 E0.24586
G0 F300 X51.326 Y64.337
G1 F600 X45.891 Y58.902 E0.25565
G0 F300 X45.685 Y59.261
G1 F600 X51.299 Y64.876 E0.26409
G0 F300 X51.245 Y65.387
G1 F600 X45.478 Y59.62 E0.27126
G0 F300 X45.271 Y59.978
G1 F600 X51.166 Y65.874 E0.27731
G0 F300 X51.07 Y66.344
G1 F600 X45.063 Y60.337 E0.28255
G0 F300 X44.856 Y60.695
G1 F600 X50.952 Y66.791 E0.28674
G0 F300 X50.819 Y67.224
G1 F600 X44.65 Y61.055 E0.29017
G0 F300 X44.443 Y61.413
G1 F600 X50.67 Y67.641 E0.29292
G0 F300 X50.505 Y68.041
G1 F600 X44.235 Y61.772 E0.2949
G0 F300 X44.028 Y62.13
G1 F600 X50.325 Y68.427 E0.29619
G0 F300 X50.132 Y68.8
G1 F600 X43.821 Y62.489 E0.29685
G0 F300 X43.615 Y62.848
G1 F600 X49.925 Y69.159 E0.29683
G0 F300 X49.707 Y69.506
G1 F600 X43.407 Y63.206 E0.29633
G0 F300 X43.2 Y63.565
G1 F600 X49.474 Y69.839 E0.29511
G0 F300 X49.23 Y70.16
G1 F600 X42.993 Y63.923 E0.29337
G1 X42.923 Y63.853
G0 F300 X43.279 Y64.775
G1 F600 X48.975 Y70.471 E0.26792
G0 F300 X48.709 Y70.771
G1 F600 X44.051 Y66.113 E0.2191
G1 X43.981 Y66.043
G0 F300 X44.824 Y67.451
G1 F600 X48.431 Y71.059 E0.16969
G0 F300 X48.141 Y71.334
G1 F600 X45.596 Y68.789 E0.11971
G1 X45.526 Y68.719
G0 F300 X46.369 Y70.128
G1 F600 X47.838 Y71.597 E0.0691
G0 F300 X47.526 Y71.85
G1 F600 X47.141 Y71.465 E0.01811
;MESH:NONMESH
G0 F300 X47.355 Y55.653
G0 X47.395 Y55.595
;TIME_ELAPSED:57.833692
;LAYER:1
M106 S255
;MESH:BlueSpot.stl
G0 F800 X47.395 Y55.595 Z2.9
;TYPE:WALL-INNER
G1 F1600 X47.715 Y55.818 E0.01297
G1 X48.121 Y56.137 E0.01717
G1 X48.531 Y56.493 E0.01806
G1 X48.89 Y56.838 E0.01656
G1 X49.246 Y57.216 E0.01727
G1 X49.583 Y57.615 E0.01737
G1 X49.898 Y58.026 E0.01722
G1 X50.198 Y58.462 E0.0176
G1 X50.466 Y58.896 E0.01697
G1 X50.721 Y59.36 E0.01761
G1 X50.948 Y59.827 E0.01727
G1 X51.151 Y60.305 E0.01727
G1 X51.327 Y60.784 E0.01697
G1 X51.478 Y61.268 E0.01686
G1 X51.612 Y61.792 E0.01799
G1 X51.716 Y62.301 E0.01728
G1 X51.793 Y62.805 E0.01696
G1 X51.846 Y63.331 E0.01758
G1 X51.872 Y63.84 E0.01695
G1 X51.872 Y64.369 E0.01759
G1 X51.847 Y64.868 E0.01662
G1 X51.793 Y65.403 E0.01788
G1 X51.718 Y65.898 E0.01665
G1 X51.614 Y66.407 E0.01728
G1 X51.479 Y66.935 E0.01813
G1 X51.327 Y67.425 E0.01706
G1 X51.151 Y67.904 E0.01697
G1 X50.952 Y68.373 E0.01695
G1 X50.721 Y68.849 E0.0176
G1 X50.466 Y69.313 E0.01761
G1 X50.203 Y69.74 E0.01668
G1 X49.91 Y70.167 E0.01722
G1 X49.581 Y70.596 E0.01798
G1 X49.259 Y70.976 E0.01657
G1 X48.895 Y71.364 E0.01769
G1 X48.523 Y71.723 E0.01719
G1 X48.121 Y72.072 E0.01771
G1 X47.715 Y72.391 E0.01717
G1 X47.437 Y72.588 E0.01133
G1 X47.306 Y72.681 E0.00534
G1 X47.216 Y72.737 E0.00353
G1 X47.136 Y72.598 E0.00388
G1 X42.232 Y64.104 E0.32622
G1 X47.109 Y55.658 E0.32438
G1 X47.217 Y55.471 E0.00718
G1 X47.394 Y55.594 E0.00453
G1 X47.395 Y55.595 E0.00005
G0 F800 X47.338 Y55.677
G0 X47.24 Y72.64
G0 X47.252 Y73.186
;TYPE:WALL-OUTER
G1 F1000 X47.251 Y73.187 E0.00005
G1 X47.077 Y73.295 E0.00681
G1 X46.974 Y73.117 E0.00439
G1 X41.771 Y64.104 E0.34614
G1 X46.976 Y55.09 E0.3462
G1 X47.08 Y54.91 E0.00691
G1 X47.255 Y55.021 E0.0044
G1 X47.513 Y55.185 E0.01017
G1 X47.962 Y55.503 E0.0183
G1 X48.379 Y55.83 E0.01763
G1 X48.794 Y56.191 E0.01829
G1 X49.176 Y56.558 E0.01762
G1 X49.552 Y56.958 E0.01826
G1 X49.894 Y57.363 E0.01763
G1 X50.228 Y57.799 E0.01827
G1 X50.528 Y58.235 E0.0176
G1 X50.817 Y58.703 E0.01829
G1 X51.072 Y59.167 E0.01761
G1 X51.308 Y59.652 E0.01794
G1 X51.519 Y60.149 E0.01796
G1 X51.709 Y60.665 E0.01829
G1 X51.866 Y61.169 E0.01756
G1 X52 Y61.693 E0.01799
G1 X52.108 Y62.221 E0.01792
G1 X52.191 Y62.765 E0.0183
G1 X52.244 Y63.291 E0.01758
G1 X52.272 Y63.84 E0.01828
G1 X52.272 Y64.369 E0.01759
G1 X52.245 Y64.908 E0.01795
G1 X52.191 Y65.444 E0.01792
G1 X52.11 Y65.978 E0.01796
G1 X52.002 Y66.506 E0.01792
G1 X51.866 Y67.038 E0.01826
G1 X51.709 Y67.544 E0.01762
G1 X51.519 Y68.06 E0.01829
G1 X51.312 Y68.548 E0.01763
G1 X51.072 Y69.042 E0.01827
G1 X50.817 Y69.506 E0.01761
G1 X50.533 Y69.966 E0.01798
G1 X50.228 Y70.41 E0.01792
G1 X49.894 Y70.846 E0.01827
G1 X49.551 Y71.25 E0.01763
G1 X49.182 Y71.643 E0.01793
G1 X48.786 Y72.025 E0.0183
G1 X48.379 Y72.379 E0.01794
G1 X47.962 Y72.706 E0.01763
G1 X47.523 Y73.017 E0.01789
G1 X47.252 Y73.186 E0.01062
G0 F800 X47.251 Y73.187
G0 X47.082 Y73.292
G0 X47.24 Y72.64
G0 X47.343 Y72.176
;TYPE:SKIN
G1 F1000 X42.683 Y64.104 E0.31
G1 X47.342 Y56.034 E0.30993
G1 X47.482 Y56.131 E0.00566
G1 X47.872 Y56.437 E0.01649
G1 X48.26 Y56.774 E0.01709
G1 X48.612 Y57.112 E0.01623
G1 X48.955 Y57.476 E0.01663
G1 X49.273 Y57.853 E0.0164
G1 X49.588 Y58.264 E0.01722
G1 X49.871 Y58.675 E0.0166
G1 X50.134 Y59.101 E0.01665
G1 X50.37 Y59.53 E0.01629
G1 X50.589 Y59.979 E0.01662
G1 X50.785 Y60.44 E0.01666
G1 X50.955 Y60.901 E0.01634
G1 X51.1 Y61.365 E0.01617
G1 X51.232 Y61.88 E0.01768
G1 X51.33 Y62.36 E0.01629
G1 X51.407 Y62.864 E0.01696
G1 X51.456 Y63.351 E0.01628
G1 X51.482 Y63.86 E0.01695
G1 X51.482 Y64.35 E0.0163
G1 X51.458 Y64.839 E0.01628
G1 X51.407 Y65.345 E0.01691
G1 X51.336 Y65.82 E0.01597
G1 X51.236 Y66.31 E0.01663
G1 X51.101 Y66.838 E0.01813
G1 X50.961 Y67.29 E0.01574
G1 X50.788 Y67.761 E0.01669
G1 X50.601 Y68.203 E0.01596
G1 X50.374 Y68.671 E0.0173
G1 X50.134 Y69.108 E0.01658
G1 X49.881 Y69.519 E0.01605
G1 X49.595 Y69.935 E0.01679
G1 X49.271 Y70.358 E0.01772
G1 X48.974 Y70.709 E0.01529
G1 X48.624 Y71.083 E0.01704
G1 X48.253 Y71.441 E0.01715
G1 X47.872 Y71.772 E0.01679
G1 X47.489 Y72.073 E0.0162
G1 X47.343 Y72.176 E0.00594
G0 F800 X49.178 Y70.181
G1 F1000 X47.616 Y71.743 E0.07347
G0 F800 X47.209 Y71.583
G1 F1000 X50.22 Y68.573 E0.1416
G1 X50.29 Y68.503
G0 F800 X50.67 Y67.557
G1 F1000 X47.002 Y71.225 E0.17253
G0 F800 X46.795 Y70.866
G1 F1000 X50.944 Y66.717 E0.19516
G0 F800 X51.12 Y65.976
G1 F1000 X46.589 Y70.507 E0.21312
G0 F800 X46.381 Y70.149
G1 F1000 X51.23 Y65.3 E0.22808
G0 F800 X51.285 Y64.68
G1 F1000 X46.174 Y69.79 E0.24038
G0 F800 X45.967 Y69.432
G1 F1000 X51.302 Y64.097 E0.25094
G0 F800 X51.285 Y63.548
G1 F1000 X45.76 Y69.073 E0.25988
G0 F800 X45.553 Y68.714
G1 F1000 X51.242 Y63.025 E0.26759
G0 F800 X51.173 Y62.529
G1 F1000 X45.346 Y68.356 E0.27408
G0 F800 X45.139 Y67.997
G1 F1000 X51.083 Y62.053 E0.27959
G0 F800 X50.972 Y61.598
G1 F1000 X44.932 Y67.639 E0.28413
G0 F800 X44.725 Y67.279
G1 F1000 X50.846 Y61.159 E0.28789
G0 F800 X50.702 Y60.737
G1 F1000 X44.518 Y66.921 E0.29088
G0 F800 X44.311 Y66.562
G1 F1000 X50.542 Y60.331 E0.29309
G0 F800 X50.368 Y59.94
G1 F1000 X44.104 Y66.204 E0.29464
G0 F800 X43.897 Y65.845
G1 F1000 X50.181 Y59.561 E0.29558
G0 F800 X49.981 Y59.196
G1 F1000 X43.69 Y65.486 E0.29589
G0 F800 X43.483 Y65.128
G1 F1000 X49.765 Y58.846 E0.29549
G0 F800 X49.537 Y58.508
G1 F1000 X43.276 Y64.769 E0.2945
G0 F800 X43.069 Y64.411
G1 F1000 X49.298 Y58.182 E0.29299
G0 F800 X49.048 Y57.866
G1 F1000 X42.999 Y63.915 E0.28453
G1 X42.929 Y63.985
G0 F800 X43.772 Y62.576
G1 F1000 X48.787 Y57.561 E0.23589
G0 F800 X48.513 Y57.269
G1 F1000 X44.544 Y61.238 E0.18669
G1 X44.474 Y61.308
G0 F800 X45.317 Y59.899
G1 F1000 X48.226 Y56.99 E0.13683
G0 F800 X47.929 Y56.722
G1 F1000 X46.089 Y58.561 E0.08652
G1 X46.019 Y58.631
G0 F800 X46.862 Y57.223
G1 F1000 X47.62 Y56.466 E0.03563
G1 X47.69 Y56.396
;MESH:NONMESH
G0 F800 X47.341 Y55.679
G0 X47.367 Y55.643
;TIME_ELAPSED:78.932214
;LAYER:2
;MESH:BlueSpot.stl
G0 F1300 X47.367 Y55.643 Z3.1
;TYPE:WALL-INNER
G1 F2600 X47.69 Y55.868 E0.01309
G1 X48.088 Y56.181 E0.01684
G1 X48.493 Y56.534 E0.01787
G1 X48.86 Y56.886 E0.01691
G1 X49.213 Y57.262 E0.01715
G1 X49.544 Y57.655 E0.01709
G1 X49.854 Y58.059 E0.01694
G1 X50.146 Y58.483 E0.01712
G1 X50.423 Y58.933 E0.01758
G1 X50.668 Y59.376 E0.01684
G1 X50.889 Y59.833 E0.01688
G1 X51.092 Y60.307 E0.01715
G1 X51.277 Y60.812 E0.01789
G1 X51.431 Y61.305 E0.01718
G1 X51.557 Y61.795 E0.01683
G1 X51.662 Y62.311 E0.01751
G1 X51.738 Y62.812 E0.01685
G1 X51.791 Y63.335 E0.01748
G1 X51.817 Y63.842 E0.01689
G1 X51.817 Y64.367 E0.01746
G1 X51.792 Y64.863 E0.01652
G1 X51.74 Y65.377 E0.01718
G1 X51.66 Y65.907 E0.01783
G1 X51.557 Y66.414 E0.01721
G1 X51.434 Y66.894 E0.01648
G1 X51.28 Y67.389 E0.01724
G1 X51.099 Y67.884 E0.01753
G1 X50.891 Y68.372 E0.01764
G1 X50.671 Y68.826 E0.01678
G1 X50.418 Y69.286 E0.01746
G1 X50.157 Y69.708 E0.0165
G1 X49.853 Y70.15 E0.01784
G1 X49.545 Y70.553 E0.01687
G1 X49.218 Y70.939 E0.01683
G1 X48.851 Y71.33 E0.01784
G1 X48.485 Y71.682 E0.01689
G1 X48.088 Y72.028 E0.01752
G1 X47.69 Y72.341 E0.01684
G1 X47.408 Y72.54 E0.01148
G1 X47.275 Y72.634 E0.00542
G1 X47.188 Y72.688 E0.00341
G1 X47.107 Y72.547 E0.00392
G1 X42.232 Y64.104 E0.32426
G1 X47.081 Y55.706 E0.32254
G1 X47.189 Y55.519 E0.00718
G1 X47.366 Y55.642 E0.00453
G1 X47.367 Y55.643 E0.00005
G0 F1300 X47.31 Y55.725
G0 X47.212 Y72.591
G0 X47.224 Y73.138
;TYPE:WALL-OUTER
G1 F1400 X47.223 Y73.139 E0.00005
G1 X47.049 Y73.247 E0.00681
G1 X46.947 Y73.069 E0.00438
G1 X41.771 Y64.104 E0.34431
G1 X46.948 Y55.138 E0.34435
G1 X47.052 Y54.957 E0.00694
G1 X47.228 Y55.069 E0.00443
G1 X47.49 Y55.237 E0.01035
G1 X47.921 Y55.541 E0.01754
G1 X48.351 Y55.879 E0.01819
G1 X48.756 Y56.232 E0.01787
G1 X49.137 Y56.597 E0.01755
G1 X49.511 Y56.995 E0.01817
G1 X49.85 Y57.398 E0.01752
G1 X50.183 Y57.832 E0.01819
G1 X50.487 Y58.273 E0.01782
G1 X50.764 Y58.723 E0.01758
G1 X51.028 Y59.202 E0.01819
G1 X51.257 Y59.676 E0.01751
G1 X51.468 Y60.169 E0.01784
G1 X51.653 Y60.674 E0.01789
G1 X51.813 Y61.185 E0.01781
G1 X51.949 Y61.715 E0.0182
G1 X52.054 Y62.231 E0.01751
G1 X52.136 Y62.772 E0.0182
G1 X52.189 Y63.295 E0.01748
G1 X52.217 Y63.842 E0.01822
G1 X52.217 Y64.367 E0.01746
G1 X52.19 Y64.903 E0.01785
G1 X52.136 Y65.437 E0.01785
G1 X52.056 Y65.968 E0.01786
G1 X51.949 Y66.494 E0.01785
G1 X51.816 Y67.013 E0.01782
G1 X51.656 Y67.526 E0.01787
G1 X51.472 Y68.03 E0.01785
G1 X51.257 Y68.533 E0.01819
G1 X51.028 Y69.007 E0.01751
G1 X50.764 Y69.486 E0.01819
G1 X50.487 Y69.935 E0.01755
G1 X50.183 Y70.377 E0.01784
G1 X49.85 Y70.811 E0.01819
G1 X49.51 Y71.213 E0.01751
G1 X49.143 Y71.604 E0.01784
G1 X48.748 Y71.984 E0.01823
G1 X48.351 Y72.33 E0.01752
G1 X47.921 Y72.668 E0.01819
G1 X47.492 Y72.971 E0.01747
G1 X47.224 Y73.138 E0.0105
G0 F1300 X47.223 Y73.139
G0 X47.054 Y73.244
G0 X47.212 Y72.591
G0 X47.316 Y72.128
;TYPE:SKIN
G1 F1400 X42.683 Y64.104 E0.30817
G1 X47.314 Y56.082 E0.30808
G1 X47.457 Y56.181 E0.00578
G1 X47.839 Y56.481 E0.01616
G1 X48.23 Y56.822 E0.01726
G1 X48.575 Y57.153 E0.0159
G1 X48.928 Y57.529 E0.01715
G1 X49.235 Y57.893 E0.01584
G1 X49.544 Y58.297 E0.01692
G1 X49.819 Y58.696 E0.01612
G1 X50.086 Y59.13 E0.01695
G1 X50.322 Y59.556 E0.0162
G1 X50.53 Y59.987 E0.01592
G1 X50.73 Y60.451 E0.01681
G1 X50.905 Y60.929 E0.01693
G1 X51.053 Y61.402 E0.01648
G1 X51.177 Y61.883 E0.01652
G1 X51.276 Y62.369 E0.0165
G1 X51.351 Y62.861 E0.01655
G1 X51.401 Y63.355 E0.01651
G1 X51.427 Y63.862 E0.01689
G1 X51.427 Y64.348 E0.01616
G1 X51.403 Y64.834 E0.01618
G1 X51.354 Y65.319 E0.01621
G1 X51.278 Y65.829 E0.01715
G1 X51.179 Y66.317 E0.01656
G1 X51.056 Y66.797 E0.01648
G1 X50.914 Y67.255 E0.01595
G1 X50.736 Y67.741 E0.01721
G1 X50.54 Y68.202 E0.01666
G1 X50.32 Y68.656 E0.01678
G1 X50.086 Y69.081 E0.01614
G1 X49.835 Y69.487 E0.01588
G1 X49.537 Y69.921 E0.01751
G1 X49.247 Y70.301 E0.0159
G1 X48.933 Y70.672 E0.01617
G1 X48.58 Y71.049 E0.01718
G1 X48.214 Y71.401 E0.01689
G1 X47.839 Y71.728 E0.01655
G1 X47.456 Y72.029 E0.0162
G1 X47.316 Y72.128 E0.0057
G0 F1300 X47.465 Y71.79
G1 F1400 X47.141 Y71.465 E0.01526
G0 F1300 X47.779 Y71.538
G1 F1400 X46.369 Y70.128 E0.06632
G1 X46.299 Y70.058
